;     file name: gcode_test_jw.ngc
; date and time: Fri Nov 10 2023    7:32:36 PM
; postprocessor: LinuxCNC PlasmaC.scpost rev: 0.5
;
;begin pre-amble
 G21 (units: metric)
 G40 (cutter compensation: off)
 G90 (distance mode: absolute)
 M68 E3 Q0 (velocity 100%)
 G64 P0.254 Q0.025 (tracking tolerances: 0.254mm)
;end pre-amble
 M67 E3 Q100
;
;begin material setup
 (o=0,kw=1.5, ph=3.5, pd=0, ch=1.5, fr=1700, pe=0)
 F7000
;end material setup
 G0 X0 Y2
 M3 $0 S1 (plasma start)
 M67 E3 Q100
 G1 X2 Y2
 G1 X2.008 Y102.174
 G2 X4 Y104 I1.992 J-0.174
 G1 X104.174 Y103.992
 G2 X106 Y102 I-0.174 J-1.992
 G1 X105.992 Y1.826
 G2 X104 Y0 I-1.992 J0.174
 G1 X3.826 Y0.008
 G2 X2 Y2 I0.174 J1.992
 M5 $0 (plasma end)
 G0 X28 Y26
 M3 $0 S1 (plasma start)
 G1 X26 Y24
 G1 X82 Y24
 G1 X82 Y80
 G1 X26 Y80
 G1 X26 Y24
 M5 $0 (plasma end)
 G0 X44 Y66
 M3 $0 S1 (plasma start)
 G1 X44 Y64
 G1 X64.174 Y63.992
 G2 X66 Y62 I-0.174 J-1.992
 G1 X65.992 Y41.826
 G2 X64 Y40 I-1.992 J0.174
 G1 X43.826 Y40.008
 G2 X42 Y42 I0.174 J1.992
 G1 X42.008 Y62.174
 G2 X44 Y64 I1.992 J-0.174
 M5 $0 (plasma end)
 G0 X0 Y112
 M3 $0 S1 (plasma start)
 G1 X2 Y112
 G1 X2.008 Y202.174
 G2 X2.586 Y203.414 I1.987 J-0.172
 G1 X12.715 Y213.532
 G2 X14 Y214 I1.288 J-1.537
 G1 X94.174 Y213.992
 G2 X95.414 Y213.414 I-0.172 J-1.987
 G1 X105.532 Y203.285
 G2 X106 Y202 I-1.537 J-1.288
 G1 X105.992 Y111.826
 G2 X104 Y110 I-1.992 J0.174
 G1 X3.826 Y110.008
 G2 X2 Y112 I0.174 J1.992
 M5 $0 (plasma end)
 G0 X80 Y162
 M3 $0 S1 (plasma start)
 G1 X82 Y162
 G3 X82 Y162 I-28 J0
 M5 $0 (plasma end)
 G0 X110 Y112
 M3 $0 S1 (plasma start)
 G1 X112 Y112
 G1 X112.008 Y202.174
 G2 X112.586 Y203.414 I1.987 J-0.172
 G1 X122.715 Y213.532
 G2 X124 Y214 I1.288 J-1.537
 G1 X204.174 Y213.992
 G2 X205.414 Y213.414 I-0.172 J-1.987
 G1 X215.532 Y203.285
 G2 X216 Y202 I-1.537 J-1.288
 G1 X215.992 Y111.826
 G2 X214 Y110 I-1.992 J0.174
 G1 X113.826 Y110.008
 G2 X112 Y112 I0.174 J1.992
 M5 $0 (plasma end)
 G0 X138.078 Y54.006
 M3 $0 S1 (plasma start)
 G1 X136.019 Y53.026
 G2 X164 Y17.745 I-47.02 J-66.027
 G2 X191.981 Y53.026 I74.993 J-30.74
 G3 X136.036 Y53.417 I-27.981 J-1.026
 G1 X136.019 Y53.026
 M5 $0 (plasma end)
 G0 X110 Y12
 M3 $0 S1 (plasma start)
 G1 X112 Y12
 G1 X112.008 Y92.174
 G2 X112.586 Y93.414 I1.987 J-0.172
 G1 X122.664 Y103.488
 G2 X124.941 Y103.765 I1.337 J-1.492
 G3 X201.587 Y102.999 I39.059 J73.235
 G1 X203.155 Y103.813
 G2 X205.414 Y103.414 I0.846 J-1.808
 G1 X215.532 Y93.285
 G2 X216 Y92 I-1.537 J-1.288
 G1 X215.992 Y11.826
 G2 X215.414 Y10.586 I-1.987 J0.172
 G1 X205.285 Y0.468
 G2 X204 Y0 I-1.288 J1.537
 G1 X123.826 Y0.008
 G2 X122.586 Y0.586 I0.172 J1.987
 G1 X112.468 Y10.715
 G2 X112 Y12 I1.537 J1.288
 M5 $0 (plasma end)
 G0 X220 Y2
 M3 $0 S1 (plasma start)
 G1 X222 Y2
 G1 X222.008 Y102.174
 G2 X224 Y104 I1.992 J-0.174
 G1 X324.174 Y103.992
 G2 X326 Y102 I-0.174 J-1.992
 G1 X325.992 Y1.826
 G2 X324 Y0 I-1.992 J0.174
 G1 X223.826 Y0.008
 G2 X222 Y2 I0.174 J1.992
 M5 $0 (plasma end)
 G0 X248 Y26
 M3 $0 S1 (plasma start)
 G1 X246 Y24
 G1 X302 Y24
 G1 X302 Y80
 G1 X246 Y80
 G1 X246 Y24
 M5 $0 (plasma end)
 G0 X264 Y66
 M3 $0 S1 (plasma start)
 G1 X264 Y64
 G1 X284.174 Y63.992
 G2 X286 Y62 I-0.174 J-1.992
 G1 X285.992 Y41.826
 G2 X284 Y40 I-1.992 J0.174
 G1 X263.826 Y40.008
 G2 X262 Y42 I0.174 J1.992
 G1 X262.008 Y62.174
 G2 X264 Y64 I1.992 J-0.174
 M5 $0 (plasma end)
 G0 X220 Y112
 M3 $0 S1 (plasma start)
 G1 X222 Y112
 G1 X222.008 Y202.174
 G2 X222.586 Y203.414 I1.987 J-0.172
 G1 X232.715 Y213.532
 G2 X234 Y214 I1.288 J-1.537
 G1 X314.174 Y213.992
 G2 X315.414 Y213.414 I-0.172 J-1.987
 G1 X325.532 Y203.285
 G2 X326 Y202 I-1.537 J-1.288
 G1 X325.992 Y111.826
 G2 X324 Y110 I-1.992 J0.174
 G1 X223.826 Y110.008
 G2 X222 Y112 I0.174 J1.992
 M5 $0 (plasma end)
 G0 X190 Y162
 M3 $0 S1 (plasma start)
 G1 X192 Y162
 G3 X192 Y162 I-28 J0
 M5 $0 (plasma end)
 G0 X220 Y222
 M3 $0 S1 (plasma start)
 G1 X222 Y222
 G1 X222.008 Y322.174
 G2 X224 Y324 I1.992 J-0.174
 G1 X324.174 Y323.992
 G2 X326 Y322 I-0.174 J-1.992
 G1 X325.992 Y221.826
 G2 X324 Y220 I-1.992 J0.174
 G1 X223.826 Y220.008
 G2 X222 Y222 I0.174 J1.992
 M5 $0 (plasma end)
 G0 X248 Y246
 M3 $0 S1 (plasma start)
 G1 X246 Y244
 G1 X302 Y244
 G1 X302 Y300
 G1 X246 Y300
 G1 X246 Y244
 M5 $0 (plasma end)
 G0 X264 Y286
 M3 $0 S1 (plasma start)
 G1 X264 Y284
 G1 X284.174 Y283.992
 G2 X286 Y282 I-0.174 J-1.992
 G1 X285.992 Y261.826
 G2 X284 Y260 I-1.992 J0.174
 G1 X263.826 Y260.008
 G2 X262 Y262 I0.174 J1.992
 G1 X262.008 Y282.174
 G2 X264 Y284 I1.992 J-0.174
 M5 $0 (plasma end)
 G0 X220 Y332
 M3 $0 S1 (plasma start)
 G1 X222 Y332
 G1 X222.008 Y422.174
 G2 X222.586 Y423.414 I1.987 J-0.172
 G1 X232.715 Y433.532
 G2 X234 Y434 I1.288 J-1.537
 G1 X314.174 Y433.992
 G2 X315.414 Y433.414 I-0.172 J-1.987
 G1 X325.532 Y423.285
 G2 X326 Y422 I-1.537 J-1.288
 G1 X325.992 Y331.826
 G2 X324 Y330 I-1.992 J0.174
 G1 X223.826 Y330.008
 G2 X222 Y332 I0.174 J1.992
 M5 $0 (plasma end)
 G0 X190 Y382
 M3 $0 S1 (plasma start)
 G1 X192 Y382
 G3 X192 Y382 I-28 J0
 M5 $0 (plasma end)
 G0 X220 Y442
 M3 $0 S1 (plasma start)
 G1 X222 Y442
 G1 X222.008 Y542.174
 G2 X224 Y544 I1.992 J-0.174
 G1 X324.174 Y543.992
 G2 X326 Y542 I-0.174 J-1.992
 G1 X325.992 Y441.826
 G2 X324 Y440 I-1.992 J0.174
 G1 X223.826 Y440.008
 G2 X222 Y442 I0.174 J1.992
 M5 $0 (plasma end)
 G0 X248 Y466
 M3 $0 S1 (plasma start)
 G1 X246 Y464
 G1 X302 Y464
 G1 X302 Y520
 G1 X246 Y520
 G1 X246 Y464
 M5 $0 (plasma end)
 G0 X264 Y506
 M3 $0 S1 (plasma start)
 G1 X264 Y504
 G1 X284.174 Y503.992
 G2 X286 Y502 I-0.174 J-1.992
 G1 X285.992 Y481.826
 G2 X284 Y480 I-1.992 J0.174
 G1 X263.826 Y480.008
 G2 X262 Y482 I0.174 J1.992
 G1 X262.008 Y502.174
 G2 X264 Y504 I1.992 J-0.174
 M5 $0 (plasma end)
 G0 X330 Y452
 M3 $0 S1 (plasma start)
 G1 X332 Y452
 G1 X332.008 Y532.174
 G2 X332.586 Y533.414 I1.987 J-0.172
 G1 X342.664 Y543.488
 G2 X344.941 Y543.765 I1.337 J-1.492
 G3 X421.587 Y542.999 I39.059 J73.235
 G1 X423.155 Y543.813
 G2 X425.414 Y543.414 I0.846 J-1.808
 G1 X435.532 Y533.285
 G2 X436 Y532 I-1.537 J-1.288
 G1 X435.992 Y451.826
 G2 X435.414 Y450.586 I-1.987 J0.172
 G1 X425.285 Y440.468
 G2 X424 Y440 I-1.288 J1.537
 G1 X343.826 Y440.008
 G2 X342.586 Y440.586 I0.172 J1.987
 G1 X332.468 Y450.715
 G2 X332 Y452 I1.537 J1.288
 M5 $0 (plasma end)
 G0 X358.078 Y494.006
 M3 $0 S1 (plasma start)
 G1 X356.019 Y493.026
 G2 X384 Y457.745 I-47.02 J-66.027
 G2 X411.981 Y493.026 I74.993 J-30.74
 G3 X356.036 Y493.417 I-27.981 J-1.026
 G1 X356.019 Y493.026
 M5 $0 (plasma end)
 G0 X440 Y442
 M3 $0 S1 (plasma start)
 G1 X442 Y442
 G1 X442.008 Y542.174
 G2 X444 Y544 I1.992 J-0.174
 G1 X544.174 Y543.992
 G2 X546 Y542 I-0.174 J-1.992
 G1 X545.992 Y441.826
 G2 X544 Y440 I-1.992 J0.174
 G1 X443.826 Y440.008
 G2 X442 Y442 I0.174 J1.992
 M5 $0 (plasma end)
 G0 X468 Y466
 M3 $0 S1 (plasma start)
 G1 X466 Y464
 G1 X522 Y464
 G1 X522 Y520
 G1 X466 Y520
 G1 X466 Y464
 M5 $0 (plasma end)
 G0 X484 Y506
 M3 $0 S1 (plasma start)
 G1 X484 Y504
 G1 X504.174 Y503.992
 G2 X506 Y502 I-0.174 J-1.992
 G1 X505.992 Y481.826
 G2 X504 Y480 I-1.992 J0.174
 G1 X483.826 Y480.008
 G2 X482 Y482 I0.174 J1.992
 G1 X482.008 Y502.174
 G2 X484 Y504 I1.992 J-0.174
 M5 $0 (plasma end)
 G0 X550 Y452
 M3 $0 S1 (plasma start)
 G1 X552 Y452
 G1 X552.008 Y532.174
 G2 X552.586 Y533.414 I1.987 J-0.172
 G1 X562.664 Y543.488
 G2 X564.941 Y543.765 I1.337 J-1.492
 G3 X641.587 Y542.999 I39.059 J73.235
 G1 X643.155 Y543.813
 G2 X645.414 Y543.414 I0.846 J-1.808
 G1 X655.532 Y533.285
 G2 X656 Y532 I-1.537 J-1.288
 G1 X655.992 Y451.826
 G2 X655.414 Y450.586 I-1.987 J0.172
 G1 X645.285 Y440.468
 G2 X644 Y440 I-1.288 J1.537
 G1 X563.826 Y440.008
 G2 X562.586 Y440.586 I0.172 J1.987
 G1 X552.468 Y450.715
 G2 X552 Y452 I1.537 J1.288
 M5 $0 (plasma end)
 G0 X578.078 Y494.006
 M3 $0 S1 (plasma start)
 G1 X576.019 Y493.026
 G2 X604 Y457.745 I-47.02 J-66.027
 G2 X631.981 Y493.026 I74.993 J-30.74
 G3 X576.036 Y493.417 I-27.981 J-1.026
 G1 X576.019 Y493.026
 M5 $0 (plasma end)
 G0 X660 Y442
 M3 $0 S1 (plasma start)
 G1 X662 Y442
 G1 X662.008 Y542.174
 G2 X664 Y544 I1.992 J-0.174
 G1 X764.174 Y543.992
 G2 X766 Y542 I-0.174 J-1.992
 G1 X765.992 Y441.826
 G2 X764 Y440 I-1.992 J0.174
 G1 X663.826 Y440.008
 G2 X662 Y442 I0.174 J1.992
 M5 $0 (plasma end)
 G0 X688 Y466
 M3 $0 S1 (plasma start)
 G1 X686 Y464
 G1 X742 Y464
 G1 X742 Y520
 G1 X686 Y520
 G1 X686 Y464
 M5 $0 (plasma end)
 G0 X704 Y506
 M3 $0 S1 (plasma start)
 G1 X704 Y504
 G1 X724.174 Y503.992
 G2 X726 Y502 I-0.174 J-1.992
 G1 X725.992 Y481.826
 G2 X724 Y480 I-1.992 J0.174
 G1 X703.826 Y480.008
 G2 X702 Y482 I0.174 J1.992
 G1 X702.008 Y502.174
 G2 X704 Y504 I1.992 J-0.174
 M5 $0 (plasma end)
 G0 X770 Y452
 M3 $0 S1 (plasma start)
 G1 X772 Y452
 G1 X772.008 Y532.174
 G2 X772.586 Y533.414 I1.987 J-0.172
 G1 X782.664 Y543.488
 G2 X784.941 Y543.765 I1.337 J-1.492
 G3 X861.587 Y542.999 I39.059 J73.235
 G1 X863.155 Y543.813
 G2 X865.414 Y543.414 I0.846 J-1.808
 G1 X875.532 Y533.285
 G2 X876 Y532 I-1.537 J-1.288
 G1 X875.992 Y451.826
 G2 X875.414 Y450.586 I-1.987 J0.172
 G1 X865.285 Y440.468
 G2 X864 Y440 I-1.288 J1.537
 G1 X783.826 Y440.008
 G2 X782.586 Y440.586 I0.172 J1.987
 G1 X772.468 Y450.715
 G2 X772 Y452 I1.537 J1.288
 M5 $0 (plasma end)
 G0 X798.078 Y494.006
 M3 $0 S1 (plasma start)
 G1 X796.019 Y493.026
 G2 X824 Y457.745 I-47.02 J-66.027
 G2 X851.981 Y493.026 I74.993 J-30.74
 G3 X796.036 Y493.417 I-27.981 J-1.026
 G1 X796.019 Y493.026
 M5 $0 (plasma end)
 G0 X880 Y442
 M3 $0 S1 (plasma start)
 G1 X882 Y442
 G1 X882.008 Y542.174
 G2 X884 Y544 I1.992 J-0.174
 G1 X984.174 Y543.992
 G2 X986 Y542 I-0.174 J-1.992
 G1 X985.992 Y441.826
 G2 X984 Y440 I-1.992 J0.174
 G1 X883.826 Y440.008
 G2 X882 Y442 I0.174 J1.992
 M5 $0 (plasma end)
 G0 X908 Y466
 M3 $0 S1 (plasma start)
 G1 X906 Y464
 G1 X962 Y464
 G1 X962 Y520
 G1 X906 Y520
 G1 X906 Y464
 M5 $0 (plasma end)
 G0 X924 Y506
 M3 $0 S1 (plasma start)
 G1 X924 Y504
 G1 X944.174 Y503.992
 G2 X946 Y502 I-0.174 J-1.992
 G1 X945.992 Y481.826
 G2 X944 Y480 I-1.992 J0.174
 G1 X923.826 Y480.008
 G2 X922 Y482 I0.174 J1.992
 G1 X922.008 Y502.174
 G2 X924 Y504 I1.992 J-0.174
 M5 $0 (plasma end)
 G0 X990 Y452
 M3 $0 S1 (plasma start)
 G1 X992 Y452
 G1 X992.008 Y532.174
 G2 X992.586 Y533.414 I1.987 J-0.172
 G1 X1002.664 Y543.488
 G2 X1004.941 Y543.765 I1.337 J-1.492
 G3 X1081.587 Y542.999 I39.059 J73.235
 G1 X1083.155 Y543.813
 G2 X1085.414 Y543.414 I0.846 J-1.808
 G1 X1095.532 Y533.285
 G2 X1096 Y532 I-1.537 J-1.288
 G1 X1095.992 Y451.826
 G2 X1095.414 Y450.586 I-1.987 J0.172
 G1 X1085.285 Y440.468
 G2 X1084 Y440 I-1.288 J1.537
 G1 X1003.826 Y440.008
 G2 X1002.586 Y440.586 I0.172 J1.987
 G1 X992.468 Y450.715
 G2 X992 Y452 I1.537 J1.288
 M5 $0 (plasma end)
 G0 X1018.078 Y494.006
 M3 $0 S1 (plasma start)
 G1 X1016.019 Y493.026
 G2 X1044 Y457.745 I-47.02 J-66.027
 G2 X1071.981 Y493.026 I74.993 J-30.74
 G3 X1016.036 Y493.417 I-27.981 J-1.026
 G1 X1016.019 Y493.026
 M5 $0 (plasma end)
 G0 X1070 Y382
 M3 $0 S1 (plasma start)
 G1 X1072 Y382
 G3 X1072 Y382 I-28 J0
 M5 $0 (plasma end)
 G0 X1105 Y332
 M3 $0 S1 (plasma start)
 G1 X1107 Y332
 G1 X1107.008 Y422.174
 G2 X1107.586 Y423.414 I1.987 J-0.172
 G1 X1117.715 Y433.532
 G2 X1119 Y434 I1.288 J-1.537
 G1 X1199.174 Y433.992
 G2 X1200.414 Y433.414 I-0.172 J-1.987
 G1 X1210.532 Y423.285
 G2 X1211 Y422 I-1.537 J-1.288
 G1 X1210.992 Y331.826
 G2 X1209 Y330 I-1.992 J0.174
 G1 X1108.826 Y330.008
 G2 X1107 Y332 I0.174 J1.992
 M5 $0 (plasma end)
 G0 X1149 Y286
 M3 $0 S1 (plasma start)
 G1 X1149 Y284
 G1 X1169.174 Y283.992
 G2 X1171 Y282 I-0.174 J-1.992
 G1 X1170.992 Y261.826
 G2 X1169 Y260 I-1.992 J0.174
 G1 X1148.826 Y260.008
 G2 X1147 Y262 I0.174 J1.992
 G1 X1147.008 Y282.174
 G2 X1149 Y284 I1.992 J-0.174
 M5 $0 (plasma end)
 G0 X1133 Y246
 M3 $0 S1 (plasma start)
 G1 X1131 Y244
 G1 X1187 Y244
 G1 X1187 Y300
 G1 X1131 Y300
 G1 X1131 Y244
 M5 $0 (plasma end)
 G0 X1105 Y222
 M3 $0 S1 (plasma start)
 G1 X1107 Y222
 G1 X1107.008 Y322.174
 G2 X1109 Y324 I1.992 J-0.174
 G1 X1209.174 Y323.992
 G2 X1211 Y322 I-0.174 J-1.992
 G1 X1210.992 Y221.826
 G2 X1209 Y220 I-1.992 J0.174
 G1 X1108.826 Y220.008
 G2 X1107 Y222 I0.174 J1.992
 M5 $0 (plasma end)
 G0 X1070 Y162
 M3 $0 S1 (plasma start)
 G1 X1072 Y162
 G3 X1072 Y162 I-28 J0
 M5 $0 (plasma end)
 G0 X1105 Y112
 M3 $0 S1 (plasma start)
 G1 X1107 Y112
 G1 X1107.008 Y202.174
 G2 X1107.586 Y203.414 I1.987 J-0.172
 G1 X1117.715 Y213.532
 G2 X1119 Y214 I1.288 J-1.537
 G1 X1199.174 Y213.992
 G2 X1200.414 Y213.414 I-0.172 J-1.987
 G1 X1210.532 Y203.285
 G2 X1211 Y202 I-1.537 J-1.288
 G1 X1210.992 Y111.826
 G2 X1209 Y110 I-1.992 J0.174
 G1 X1108.826 Y110.008
 G2 X1107 Y112 I0.174 J1.992
 M5 $0 (plasma end)
 G0 X1149 Y66
 M3 $0 S1 (plasma start)
 G1 X1149 Y64
 G1 X1169.174 Y63.992
 G2 X1171 Y62 I-0.174 J-1.992
 G1 X1170.992 Y41.826
 G2 X1169 Y40 I-1.992 J0.174
 G1 X1148.826 Y40.008
 G2 X1147 Y42 I0.174 J1.992
 G1 X1147.008 Y62.174
 G2 X1149 Y64 I1.992 J-0.174
 M5 $0 (plasma end)
 G0 X1133 Y26
 M3 $0 S1 (plasma start)
 G1 X1131 Y24
 G1 X1187 Y24
 G1 X1187 Y80
 G1 X1131 Y80
 G1 X1131 Y24
 M5 $0 (plasma end)
 G0 X1105 Y2
 M3 $0 S1 (plasma start)
 G1 X1107 Y2
 G1 X1107.008 Y102.174
 G2 X1109 Y104 I1.992 J-0.174
 G1 X1209.174 Y103.992
 G2 X1211 Y102 I-0.174 J-1.992
 G1 X1210.992 Y1.826
 G2 X1209 Y0 I-1.992 J0.174
 G1 X1108.826 Y0.008
 G2 X1107 Y2 I0.174 J1.992
 M5 $0 (plasma end)
 G0 X1018.078 Y54.006
 M3 $0 S1 (plasma start)
 G1 X1016.019 Y53.026
 G2 X1044 Y17.745 I-47.02 J-66.027
 G2 X1071.981 Y53.026 I74.993 J-30.74
 G3 X1016.036 Y53.417 I-27.981 J-1.026
 G1 X1016.019 Y53.026
 M5 $0 (plasma end)
 G0 X990 Y12
 M3 $0 S1 (plasma start)
 G1 X992 Y12
 G1 X992.008 Y92.174
 G2 X992.586 Y93.414 I1.987 J-0.172
 G1 X1002.664 Y103.488
 G2 X1004.941 Y103.765 I1.337 J-1.492
 G3 X1081.587 Y102.999 I39.059 J73.235
 G1 X1083.155 Y103.813
 G2 X1085.414 Y103.414 I0.846 J-1.808
 G1 X1095.532 Y93.285
 G2 X1096 Y92 I-1.537 J-1.288
 G1 X1095.992 Y11.826
 G2 X1095.414 Y10.586 I-1.987 J0.172
 G1 X1085.285 Y0.468
 G2 X1084 Y0 I-1.288 J1.537
 G1 X1003.826 Y0.008
 G2 X1002.586 Y0.586 I0.172 J1.987
 G1 X992.468 Y10.715
 G2 X992 Y12 I1.537 J1.288
 M5 $0 (plasma end)
 G0 X908 Y26
 M3 $0 S1 (plasma start)
 G1 X906 Y24
 G1 X962 Y24
 G1 X962 Y80
 G1 X906 Y80
 G1 X906 Y24
 M5 $0 (plasma end)
 G0 X880 Y2
 M3 $0 S1 (plasma start)
 G1 X882 Y2
 G1 X882.008 Y102.174
 G2 X884 Y104 I1.992 J-0.174
 G1 X984.174 Y103.992
 G2 X986 Y102 I-0.174 J-1.992
 G1 X985.992 Y1.826
 G2 X984 Y0 I-1.992 J0.174
 G1 X883.826 Y0.008
 G2 X882 Y2 I0.174 J1.992
 M5 $0 (plasma end)
 G0 X924 Y66
 M3 $0 S1 (plasma start)
 G1 X924 Y64
 G1 X944.174 Y63.992
 G2 X946 Y62 I-0.174 J-1.992
 G1 X945.992 Y41.826
 G2 X944 Y40 I-1.992 J0.174
 G1 X923.826 Y40.008
 G2 X922 Y42 I0.174 J1.992
 G1 X922.008 Y62.174
 G2 X924 Y64 I1.992 J-0.174
 M5 $0 (plasma end)
 G0 X880 Y112
 M3 $0 S1 (plasma start)
 G1 X882 Y112
 G1 X882.008 Y202.174
 G2 X882.586 Y203.414 I1.987 J-0.172
 G1 X892.715 Y213.532
 G2 X894 Y214 I1.288 J-1.537
 G1 X974.174 Y213.992
 G2 X975.414 Y213.414 I-0.172 J-1.987
 G1 X985.532 Y203.285
 G2 X986 Y202 I-1.537 J-1.288
 G1 X985.992 Y111.826
 G2 X984 Y110 I-1.992 J0.174
 G1 X883.826 Y110.008
 G2 X882 Y112 I0.174 J1.992
 M5 $0 (plasma end)
 G0 X850 Y162
 M3 $0 S1 (plasma start)
 G1 X852 Y162
 G3 X852 Y162 I-28 J0
 M5 $0 (plasma end)
 G0 X880 Y222
 M3 $0 S1 (plasma start)
 G1 X882 Y222
 G1 X882.008 Y322.174
 G2 X884 Y324 I1.992 J-0.174
 G1 X984.174 Y323.992
 G2 X986 Y322 I-0.174 J-1.992
 G1 X985.992 Y221.826
 G2 X984 Y220 I-1.992 J0.174
 G1 X883.826 Y220.008
 G2 X882 Y222 I0.174 J1.992
 M5 $0 (plasma end)
 G0 X908 Y246
 M3 $0 S1 (plasma start)
 G1 X906 Y244
 G1 X962 Y244
 G1 X962 Y300
 G1 X906 Y300
 G1 X906 Y244
 M5 $0 (plasma end)
 G0 X924 Y286
 M3 $0 S1 (plasma start)
 G1 X924 Y284
 G1 X944.174 Y283.992
 G2 X946 Y282 I-0.174 J-1.992
 G1 X945.992 Y261.826
 G2 X944 Y260 I-1.992 J0.174
 G1 X923.826 Y260.008
 G2 X922 Y262 I0.174 J1.992
 G1 X922.008 Y282.174
 G2 X924 Y284 I1.992 J-0.174
 M5 $0 (plasma end)
 G0 X880 Y332
 M3 $0 S1 (plasma start)
 G1 X882 Y332
 G1 X882.008 Y422.174
 G2 X882.586 Y423.414 I1.987 J-0.172
 G1 X892.715 Y433.532
 G2 X894 Y434 I1.288 J-1.537
 G1 X974.174 Y433.992
 G2 X975.414 Y433.414 I-0.172 J-1.987
 G1 X985.532 Y423.285
 G2 X986 Y422 I-1.537 J-1.288
 G1 X985.992 Y331.826
 G2 X984 Y330 I-1.992 J0.174
 G1 X883.826 Y330.008
 G2 X882 Y332 I0.174 J1.992
 M5 $0 (plasma end)
 G0 X850 Y382
 M3 $0 S1 (plasma start)
 G1 X852 Y382
 G3 X852 Y382 I-28 J0
 M5 $0 (plasma end)
 G0 X770 Y332
 M3 $0 S1 (plasma start)
 G1 X772 Y332
 G1 X772.008 Y422.174
 G2 X772.586 Y423.414 I1.987 J-0.172
 G1 X782.715 Y433.532
 G2 X784 Y434 I1.288 J-1.537
 G1 X864.174 Y433.992
 G2 X865.414 Y433.414 I-0.172 J-1.987
 G1 X875.532 Y423.285
 G2 X876 Y422 I-1.537 J-1.288
 G1 X875.992 Y331.826
 G2 X874 Y330 I-1.992 J0.174
 G1 X773.826 Y330.008
 G2 X772 Y332 I0.174 J1.992
 M5 $0 (plasma end)
 G0 X740 Y382
 M3 $0 S1 (plasma start)
 G1 X742 Y382
 G3 X742 Y382 I-28 J0
 M5 $0 (plasma end)
 G0 X660 Y332
 M3 $0 S1 (plasma start)
 G1 X662 Y332
 G1 X662.008 Y422.174
 G2 X662.586 Y423.414 I1.987 J-0.172
 G1 X672.715 Y433.532
 G2 X674 Y434 I1.288 J-1.537
 G1 X754.174 Y433.992
 G2 X755.414 Y433.414 I-0.172 J-1.987
 G1 X765.532 Y423.285
 G2 X766 Y422 I-1.537 J-1.288
 G1 X765.992 Y331.826
 G2 X764 Y330 I-1.992 J0.174
 G1 X663.826 Y330.008
 G2 X662 Y332 I0.174 J1.992
 M5 $0 (plasma end)
 G0 X630 Y382
 M3 $0 S1 (plasma start)
 G1 X632 Y382
 G3 X632 Y382 I-28 J0
 M5 $0 (plasma end)
 G0 X550 Y332
 M3 $0 S1 (plasma start)
 G1 X552 Y332
 G1 X552.008 Y422.174
 G2 X552.586 Y423.414 I1.987 J-0.172
 G1 X562.715 Y433.532
 G2 X564 Y434 I1.288 J-1.537
 G1 X644.174 Y433.992
 G2 X645.414 Y433.414 I-0.172 J-1.987
 G1 X655.532 Y423.285
 G2 X656 Y422 I-1.537 J-1.288
 G1 X655.992 Y331.826
 G2 X654 Y330 I-1.992 J0.174
 G1 X553.826 Y330.008
 G2 X552 Y332 I0.174 J1.992
 M5 $0 (plasma end)
 G0 X520 Y382
 M3 $0 S1 (plasma start)
 G1 X522 Y382
 G3 X522 Y382 I-28 J0
 M5 $0 (plasma end)
 G0 X440 Y332
 M3 $0 S1 (plasma start)
 G1 X442 Y332
 G1 X442.008 Y422.174
 G2 X442.586 Y423.414 I1.987 J-0.172
 G1 X452.715 Y433.532
 G2 X454 Y434 I1.288 J-1.537
 G1 X534.174 Y433.992
 G2 X535.414 Y433.414 I-0.172 J-1.987
 G1 X545.532 Y423.285
 G2 X546 Y422 I-1.537 J-1.288
 G1 X545.992 Y331.826
 G2 X544 Y330 I-1.992 J0.174
 G1 X443.826 Y330.008
 G2 X442 Y332 I0.174 J1.992
 M5 $0 (plasma end)
 G0 X410 Y382
 M3 $0 S1 (plasma start)
 G1 X412 Y382
 G3 X412 Y382 I-28 J0
 M5 $0 (plasma end)
 G0 X330 Y332
 M3 $0 S1 (plasma start)
 G1 X332 Y332
 G1 X332.008 Y422.174
 G2 X332.586 Y423.414 I1.987 J-0.172
 G1 X342.715 Y433.532
 G2 X344 Y434 I1.288 J-1.537
 G1 X424.174 Y433.992
 G2 X425.414 Y433.414 I-0.172 J-1.987
 G1 X435.532 Y423.285
 G2 X436 Y422 I-1.537 J-1.288
 G1 X435.992 Y331.826
 G2 X434 Y330 I-1.992 J0.174
 G1 X333.826 Y330.008
 G2 X332 Y332 I0.174 J1.992
 M5 $0 (plasma end)
 G0 X300 Y382
 M3 $0 S1 (plasma start)
 G1 X302 Y382
 G3 X302 Y382 I-28 J0
 M5 $0 (plasma end)
 G0 X358.078 Y274.006
 M3 $0 S1 (plasma start)
 G1 X356.019 Y273.026
 G2 X384 Y237.745 I-47.02 J-66.027
 G2 X411.981 Y273.026 I74.993 J-30.74
 G3 X356.036 Y273.417 I-27.981 J-1.026
 G1 X356.019 Y273.026
 M5 $0 (plasma end)
 G0 X330 Y232
 M3 $0 S1 (plasma start)
 G1 X332 Y232
 G1 X332.008 Y312.174
 G2 X332.586 Y313.414 I1.987 J-0.172
 G1 X342.664 Y323.488
 G2 X344.941 Y323.765 I1.337 J-1.492
 G3 X421.587 Y322.999 I39.059 J73.235
 G1 X423.155 Y323.813
 G2 X425.414 Y323.414 I0.846 J-1.808
 G1 X435.532 Y313.285
 G2 X436 Y312 I-1.537 J-1.288
 G1 X435.992 Y231.826
 G2 X435.414 Y230.586 I-1.987 J0.172
 G1 X425.285 Y220.468
 G2 X424 Y220 I-1.288 J1.537
 G1 X343.826 Y220.008
 G2 X342.586 Y220.586 I0.172 J1.987
 G1 X332.468 Y230.715
 G2 X332 Y232 I1.537 J1.288
 M5 $0 (plasma end)
 G0 X300 Y162
 M3 $0 S1 (plasma start)
 G1 X302 Y162
 G3 X302 Y162 I-28 J0
 M5 $0 (plasma end)
 G0 X330 Y112
 M3 $0 S1 (plasma start)
 G1 X332 Y112
 G1 X332.008 Y202.174
 G2 X332.586 Y203.414 I1.987 J-0.172
 G1 X342.715 Y213.532
 G2 X344 Y214 I1.288 J-1.537
 G1 X424.174 Y213.992
 G2 X425.414 Y213.414 I-0.172 J-1.987
 G1 X435.532 Y203.285
 G2 X436 Y202 I-1.537 J-1.288
 G1 X435.992 Y111.826
 G2 X434 Y110 I-1.992 J0.174
 G1 X333.826 Y110.008
 G2 X332 Y112 I0.174 J1.992
 M5 $0 (plasma end)
 G0 X358.078 Y54.006
 M3 $0 S1 (plasma start)
 G1 X356.019 Y53.026
 G2 X384 Y17.745 I-47.02 J-66.027
 G2 X411.981 Y53.026 I74.993 J-30.74
 G3 X356.036 Y53.417 I-27.981 J-1.026
 G1 X356.019 Y53.026
 M5 $0 (plasma end)
 G0 X330 Y12
 M3 $0 S1 (plasma start)
 G1 X332 Y12
 G1 X332.008 Y92.174
 G2 X332.586 Y93.414 I1.987 J-0.172
 G1 X342.664 Y103.488
 G2 X344.941 Y103.765 I1.337 J-1.492
 G3 X421.587 Y102.999 I39.059 J73.235
 G1 X423.155 Y103.813
 G2 X425.414 Y103.414 I0.846 J-1.808
 G1 X435.532 Y93.285
 G2 X436 Y92 I-1.537 J-1.288
 G1 X435.992 Y11.826
 G2 X435.414 Y10.586 I-1.987 J0.172
 G1 X425.285 Y0.468
 G2 X424 Y0 I-1.288 J1.537
 G1 X343.826 Y0.008
 G2 X342.586 Y0.586 I0.172 J1.987
 G1 X332.468 Y10.715
 G2 X332 Y12 I1.537 J1.288
 M5 $0 (plasma end)
 G0 X440 Y2
 M3 $0 S1 (plasma start)
 G1 X442 Y2
 G1 X442.008 Y102.174
 G2 X444 Y104 I1.992 J-0.174
 G1 X544.174 Y103.992
 G2 X546 Y102 I-0.174 J-1.992
 G1 X545.992 Y1.826
 G2 X544 Y0 I-1.992 J0.174
 G1 X443.826 Y0.008
 G2 X442 Y2 I0.174 J1.992
 M5 $0 (plasma end)
 G0 X468 Y26
 M3 $0 S1 (plasma start)
 G1 X466 Y24
 G1 X522 Y24
 G1 X522 Y80
 G1 X466 Y80
 G1 X466 Y24
 M5 $0 (plasma end)
 G0 X484 Y66
 M3 $0 S1 (plasma start)
 G1 X484 Y64
 G1 X504.174 Y63.992
 G2 X506 Y62 I-0.174 J-1.992
 G1 X505.992 Y41.826
 G2 X504 Y40 I-1.992 J0.174
 G1 X483.826 Y40.008
 G2 X482 Y42 I0.174 J1.992
 G1 X482.008 Y62.174
 G2 X484 Y64 I1.992 J-0.174
 M5 $0 (plasma end)
 G0 X440 Y112
 M3 $0 S1 (plasma start)
 G1 X442 Y112
 G1 X442.008 Y202.174
 G2 X442.586 Y203.414 I1.987 J-0.172
 G1 X452.715 Y213.532
 G2 X454 Y214 I1.288 J-1.537
 G1 X534.174 Y213.992
 G2 X535.414 Y213.414 I-0.172 J-1.987
 G1 X545.532 Y203.285
 G2 X546 Y202 I-1.537 J-1.288
 G1 X545.992 Y111.826
 G2 X544 Y110 I-1.992 J0.174
 G1 X443.826 Y110.008
 G2 X442 Y112 I0.174 J1.992
 M5 $0 (plasma end)
 G0 X410 Y162
 M3 $0 S1 (plasma start)
 G1 X412 Y162
 G3 X412 Y162 I-28 J0
 M5 $0 (plasma end)
 G0 X440 Y222
 M3 $0 S1 (plasma start)
 G1 X442 Y222
 G1 X442.008 Y322.174
 G2 X444 Y324 I1.992 J-0.174
 G1 X544.174 Y323.992
 G2 X546 Y322 I-0.174 J-1.992
 G1 X545.992 Y221.826
 G2 X544 Y220 I-1.992 J0.174
 G1 X443.826 Y220.008
 G2 X442 Y222 I0.174 J1.992
 M5 $0 (plasma end)
 G0 X468 Y246
 M3 $0 S1 (plasma start)
 G1 X466 Y244
 G1 X522 Y244
 G1 X522 Y300
 G1 X466 Y300
 G1 X466 Y244
 M5 $0 (plasma end)
 G0 X484 Y286
 M3 $0 S1 (plasma start)
 G1 X484 Y284
 G1 X504.174 Y283.992
 G2 X506 Y282 I-0.174 J-1.992
 G1 X505.992 Y261.826
 G2 X504 Y260 I-1.992 J0.174
 G1 X483.826 Y260.008
 G2 X482 Y262 I0.174 J1.992
 G1 X482.008 Y282.174
 G2 X484 Y284 I1.992 J-0.174
 M5 $0 (plasma end)
 G0 X550 Y232
 M3 $0 S1 (plasma start)
 G1 X552 Y232
 G1 X552.008 Y312.174
 G2 X552.586 Y313.414 I1.987 J-0.172
 G1 X562.664 Y323.488
 G2 X564.941 Y323.765 I1.337 J-1.492
 G3 X641.587 Y322.999 I39.059 J73.235
 G1 X643.155 Y323.813
 G2 X645.414 Y323.414 I0.846 J-1.808
 G1 X655.532 Y313.285
 G2 X656 Y312 I-1.537 J-1.288
 G1 X655.992 Y231.826
 G2 X655.414 Y230.586 I-1.987 J0.172
 G1 X645.285 Y220.468
 G2 X644 Y220 I-1.288 J1.537
 G1 X563.826 Y220.008
 G2 X562.586 Y220.586 I0.172 J1.987
 G1 X552.468 Y230.715
 G2 X552 Y232 I1.537 J1.288
 M5 $0 (plasma end)
 G0 X578.078 Y274.006
 M3 $0 S1 (plasma start)
 G1 X576.019 Y273.026
 G2 X604 Y237.745 I-47.02 J-66.027
 G2 X631.981 Y273.026 I74.993 J-30.74
 G3 X576.036 Y273.417 I-27.981 J-1.026
 G1 X576.019 Y273.026
 M5 $0 (plasma end)
 G0 X660 Y222
 M3 $0 S1 (plasma start)
 G1 X662 Y222
 G1 X662.008 Y322.174
 G2 X664 Y324 I1.992 J-0.174
 G1 X764.174 Y323.992
 G2 X766 Y322 I-0.174 J-1.992
 G1 X765.992 Y221.826
 G2 X764 Y220 I-1.992 J0.174
 G1 X663.826 Y220.008
 G2 X662 Y222 I0.174 J1.992
 M5 $0 (plasma end)
 G0 X688 Y246
 M3 $0 S1 (plasma start)
 G1 X686 Y244
 G1 X742 Y244
 G1 X742 Y300
 G1 X686 Y300
 G1 X686 Y244
 M5 $0 (plasma end)
 G0 X704 Y286
 M3 $0 S1 (plasma start)
 G1 X704 Y284
 G1 X724.174 Y283.992
 G2 X726 Y282 I-0.174 J-1.992
 G1 X725.992 Y261.826
 G2 X724 Y260 I-1.992 J0.174
 G1 X703.826 Y260.008
 G2 X702 Y262 I0.174 J1.992
 G1 X702.008 Y282.174
 G2 X704 Y284 I1.992 J-0.174
 M5 $0 (plasma end)
 G0 X770 Y232
 M3 $0 S1 (plasma start)
 G1 X772 Y232
 G1 X772.008 Y312.174
 G2 X772.586 Y313.414 I1.987 J-0.172
 G1 X782.664 Y323.488
 G2 X784.941 Y323.765 I1.337 J-1.492
 G3 X861.587 Y322.999 I39.059 J73.235
 G1 X863.155 Y323.813
 G2 X865.414 Y323.414 I0.846 J-1.808
 G1 X875.532 Y313.285
 G2 X876 Y312 I-1.537 J-1.288
 G1 X875.992 Y231.826
 G2 X875.414 Y230.586 I-1.987 J0.172
 G1 X865.285 Y220.468
 G2 X864 Y220 I-1.288 J1.537
 G1 X783.826 Y220.008
 G2 X782.586 Y220.586 I0.172 J1.987
 G1 X772.468 Y230.715
 G2 X772 Y232 I1.537 J1.288
 M5 $0 (plasma end)
 G0 X798.078 Y274.006
 M3 $0 S1 (plasma start)
 G1 X796.019 Y273.026
 G2 X824 Y237.745 I-47.02 J-66.027
 G2 X851.981 Y273.026 I74.993 J-30.74
 G3 X796.036 Y273.417 I-27.981 J-1.026
 G1 X796.019 Y273.026
 M5 $0 (plasma end)
 G0 X740 Y162
 M3 $0 S1 (plasma start)
 G1 X742 Y162
 G3 X742 Y162 I-28 J0
 M5 $0 (plasma end)
 G0 X770 Y112
 M3 $0 S1 (plasma start)
 G1 X772 Y112
 G1 X772.008 Y202.174
 G2 X772.586 Y203.414 I1.987 J-0.172
 G1 X782.715 Y213.532
 G2 X784 Y214 I1.288 J-1.537
 G1 X864.174 Y213.992
 G2 X865.414 Y213.414 I-0.172 J-1.987
 G1 X875.532 Y203.285
 G2 X876 Y202 I-1.537 J-1.288
 G1 X875.992 Y111.826
 G2 X874 Y110 I-1.992 J0.174
 G1 X773.826 Y110.008
 G2 X772 Y112 I0.174 J1.992
 M5 $0 (plasma end)
 G0 X798.078 Y54.006
 M3 $0 S1 (plasma start)
 G1 X796.019 Y53.026
 G2 X824 Y17.745 I-47.02 J-66.027
 G2 X851.981 Y53.026 I74.993 J-30.74
 G3 X796.036 Y53.417 I-27.981 J-1.026
 G1 X796.019 Y53.026
 M5 $0 (plasma end)
 G0 X770 Y12
 M3 $0 S1 (plasma start)
 G1 X772 Y12
 G1 X772.008 Y92.174
 G2 X772.586 Y93.414 I1.987 J-0.172
 G1 X782.664 Y103.488
 G2 X784.941 Y103.765 I1.337 J-1.492
 G3 X861.587 Y102.999 I39.059 J73.235
 G1 X863.155 Y103.813
 G2 X865.414 Y103.414 I0.846 J-1.808
 G1 X875.532 Y93.285
 G2 X876 Y92 I-1.537 J-1.288
 G1 X875.992 Y11.826
 G2 X875.414 Y10.586 I-1.987 J0.172
 G1 X865.285 Y0.468
 G2 X864 Y0 I-1.288 J1.537
 G1 X783.826 Y0.008
 G2 X782.586 Y0.586 I0.172 J1.987
 G1 X772.468 Y10.715
 G2 X772 Y12 I1.537 J1.288
 M5 $0 (plasma end)
 G0 X688 Y26
 M3 $0 S1 (plasma start)
 G1 X686 Y24
 G1 X742 Y24
 G1 X742 Y80
 G1 X686 Y80
 G1 X686 Y24
 M5 $0 (plasma end)
 G0 X660 Y2
 M3 $0 S1 (plasma start)
 G1 X662 Y2
 G1 X662.008 Y102.174
 G2 X664 Y104 I1.992 J-0.174
 G1 X764.174 Y103.992
 G2 X766 Y102 I-0.174 J-1.992
 G1 X765.992 Y1.826
 G2 X764 Y0 I-1.992 J0.174
 G1 X663.826 Y0.008
 G2 X662 Y2 I0.174 J1.992
 M5 $0 (plasma end)
 G0 X704 Y66
 M3 $0 S1 (plasma start)
 G1 X704 Y64
 G1 X724.174 Y63.992
 G2 X726 Y62 I-0.174 J-1.992
 G1 X725.992 Y41.826
 G2 X724 Y40 I-1.992 J0.174
 G1 X703.826 Y40.008
 G2 X702 Y42 I0.174 J1.992
 G1 X702.008 Y62.174
 G2 X704 Y64 I1.992 J-0.174
 M5 $0 (plasma end)
 G0 X660 Y112
 M3 $0 S1 (plasma start)
 G1 X662 Y112
 G1 X662.008 Y202.174
 G2 X662.586 Y203.414 I1.987 J-0.172
 G1 X672.715 Y213.532
 G2 X674 Y214 I1.288 J-1.537
 G1 X754.174 Y213.992
 G2 X755.414 Y213.414 I-0.172 J-1.987
 G1 X765.532 Y203.285
 G2 X766 Y202 I-1.537 J-1.288
 G1 X765.992 Y111.826
 G2 X764 Y110 I-1.992 J0.174
 G1 X663.826 Y110.008
 G2 X662 Y112 I0.174 J1.992
 M5 $0 (plasma end)
 G0 X630 Y162
 M3 $0 S1 (plasma start)
 G1 X632 Y162
 G3 X632 Y162 I-28 J0
 M5 $0 (plasma end)
 G0 X550 Y112
 M3 $0 S1 (plasma start)
 G1 X552 Y112
 G1 X552.008 Y202.174
 G2 X552.586 Y203.414 I1.987 J-0.172
 G1 X562.715 Y213.532
 G2 X564 Y214 I1.288 J-1.537
 G1 X644.174 Y213.992
 G2 X645.414 Y213.414 I-0.172 J-1.987
 G1 X655.532 Y203.285
 G2 X656 Y202 I-1.537 J-1.288
 G1 X655.992 Y111.826
 G2 X654 Y110 I-1.992 J0.174
 G1 X553.826 Y110.008
 G2 X552 Y112 I0.174 J1.992
 M5 $0 (plasma end)
 G0 X520 Y162
 M3 $0 S1 (plasma start)
 G1 X522 Y162
 G3 X522 Y162 I-28 J0
 M5 $0 (plasma end)
 G0 X578.078 Y54.006
 M3 $0 S1 (plasma start)
 G1 X576.019 Y53.026
 G2 X604 Y17.745 I-47.02 J-66.027
 G2 X631.981 Y53.026 I74.993 J-30.74
 G3 X576.036 Y53.417 I-27.981 J-1.026
 G1 X576.019 Y53.026
 M5 $0 (plasma end)
 G0 X550 Y12
 M3 $0 S1 (plasma start)
 G1 X552 Y12
 G1 X552.008 Y92.174
 G2 X552.586 Y93.414 I1.987 J-0.172
 G1 X562.664 Y103.488
 G2 X564.941 Y103.765 I1.337 J-1.492
 G3 X641.587 Y102.999 I39.059 J73.235
 G1 X643.155 Y103.813
 G2 X645.414 Y103.414 I0.846 J-1.808
 G1 X655.532 Y93.285
 G2 X656 Y92 I-1.537 J-1.288
 G1 X655.992 Y11.826
 G2 X655.414 Y10.586 I-1.987 J0.172
 G1 X645.285 Y0.468
 G2 X644 Y0 I-1.288 J1.537
 G1 X563.826 Y0.008
 G2 X562.586 Y0.586 I0.172 J1.987
 G1 X552.468 Y10.715
 G2 X552 Y12 I1.537 J1.288
 M5 $0 (plasma end)
 G0 X960 Y162
 M3 $0 S1 (plasma start)
 G1 X962 Y162
 G3 X962 Y162 I-28 J0
 M5 $0 (plasma end)
 G0 X990 Y112
 M3 $0 S1 (plasma start)
 G1 X992 Y112
 G1 X992.008 Y202.174
 G2 X992.586 Y203.414 I1.987 J-0.172
 G1 X1002.715 Y213.532
 G2 X1004 Y214 I1.288 J-1.537
 G1 X1084.174 Y213.992
 G2 X1085.414 Y213.414 I-0.172 J-1.987
 G1 X1095.532 Y203.285
 G2 X1096 Y202 I-1.537 J-1.288
 G1 X1095.992 Y111.826
 G2 X1094 Y110 I-1.992 J0.174
 G1 X993.826 Y110.008
 G2 X992 Y112 I0.174 J1.992
 M5 $0 (plasma end)
 G0 X990 Y232
 M3 $0 S1 (plasma start)
 G1 X992 Y232
 G1 X992.008 Y312.174
 G2 X992.586 Y313.414 I1.987 J-0.172
 G1 X1002.664 Y323.488
 G2 X1004.941 Y323.765 I1.337 J-1.492
 G3 X1081.587 Y322.999 I39.059 J73.235
 G1 X1083.155 Y323.813
 G2 X1085.414 Y323.414 I0.846 J-1.808
 G1 X1095.532 Y313.285
 G2 X1096 Y312 I-1.537 J-1.288
 G1 X1095.992 Y231.826
 G2 X1095.414 Y230.586 I-1.987 J0.172
 G1 X1085.285 Y220.468
 G2 X1084 Y220 I-1.288 J1.537
 G1 X1003.826 Y220.008
 G2 X1002.586 Y220.586 I0.172 J1.987
 G1 X992.468 Y230.715
 G2 X992 Y232 I1.537 J1.288
 M5 $0 (plasma end)
 G0 X1018.078 Y274.006
 M3 $0 S1 (plasma start)
 G1 X1016.019 Y273.026
 G2 X1044 Y237.745 I-47.02 J-66.027
 G2 X1071.981 Y273.026 I74.993 J-30.74
 G3 X1016.036 Y273.417 I-27.981 J-1.026
 G1 X1016.019 Y273.026
 M5 $0 (plasma end)
 G0 X990 Y332
 M3 $0 S1 (plasma start)
 G1 X992 Y332
 G1 X992.008 Y422.174
 G2 X992.586 Y423.414 I1.987 J-0.172
 G1 X1002.715 Y433.532
 G2 X1004 Y434 I1.288 J-1.537
 G1 X1084.174 Y433.992
 G2 X1085.414 Y433.414 I-0.172 J-1.987
 G1 X1095.532 Y423.285
 G2 X1096 Y422 I-1.537 J-1.288
 G1 X1095.992 Y331.826
 G2 X1094 Y330 I-1.992 J0.174
 G1 X993.826 Y330.008
 G2 X992 Y332 I0.174 J1.992
 M5 $0 (plasma end)
 G0 X960 Y382
 M3 $0 S1 (plasma start)
 G1 X962 Y382
 G3 X962 Y382 I-28 J0
 M5 $0 (plasma end)
 G0 X1185 Y382
 M3 $0 S1 (plasma start)
 G1 X1187 Y382
 G3 X1187 Y382 I-28 J0
 M5 $0 (plasma end)
 G0 X1185 Y162
 M3 $0 S1 (plasma start)
 G1 X1187 Y162
 G3 X1187 Y162 I-28 J0
 M5 $0 (plasma end)
 G0 X138.078 Y274.006
 M3 $0 S1 (plasma start)
 G1 X136.019 Y273.026
 G2 X164 Y237.745 I-47.02 J-66.027
 G2 X191.981 Y273.026 I74.993 J-30.74
 G3 X136.036 Y273.417 I-27.981 J-1.026
 G1 X136.019 Y273.026
 M5 $0 (plasma end)
 G0 X110 Y232
 M3 $0 S1 (plasma start)
 G1 X112 Y232
 G1 X112.008 Y312.174
 G2 X112.586 Y313.414 I1.987 J-0.172
 G1 X122.664 Y323.488
 G2 X124.941 Y323.765 I1.337 J-1.492
 G3 X201.587 Y322.999 I39.059 J73.235
 G1 X203.155 Y323.813
 G2 X205.414 Y323.414 I0.846 J-1.808
 G1 X215.532 Y313.285
 G2 X216 Y312 I-1.537 J-1.288
 G1 X215.992 Y231.826
 G2 X215.414 Y230.586 I-1.987 J0.172
 G1 X205.285 Y220.468
 G2 X204 Y220 I-1.288 J1.537
 G1 X123.826 Y220.008
 G2 X122.586 Y220.586 I0.172 J1.987
 G1 X112.468 Y230.715
 G2 X112 Y232 I1.537 J1.288
 M5 $0 (plasma end)
 G0 X28 Y246
 M3 $0 S1 (plasma start)
 G1 X26 Y244
 G1 X82 Y244
 G1 X82 Y300
 G1 X26 Y300
 G1 X26 Y244
 M5 $0 (plasma end)
 G0 X0 Y222
 M3 $0 S1 (plasma start)
 G1 X2 Y222
 G1 X2.008 Y322.174
 G2 X4 Y324 I1.992 J-0.174
 G1 X104.174 Y323.992
 G2 X106 Y322 I-0.174 J-1.992
 G1 X105.992 Y221.826
 G2 X104 Y220 I-1.992 J0.174
 G1 X3.826 Y220.008
 G2 X2 Y222 I0.174 J1.992
 M5 $0 (plasma end)
 G0 X44 Y286
 M3 $0 S1 (plasma start)
 G1 X44 Y284
 G1 X64.174 Y283.992
 G2 X66 Y282 I-0.174 J-1.992
 G1 X65.992 Y261.826
 G2 X64 Y260 I-1.992 J0.174
 G1 X43.826 Y260.008
 G2 X42 Y262 I0.174 J1.992
 G1 X42.008 Y282.174
 G2 X44 Y284 I1.992 J-0.174
 M5 $0 (plasma end)
 G0 X0 Y332
 M3 $0 S1 (plasma start)
 G1 X2 Y332
 G1 X2.008 Y422.174
 G2 X2.586 Y423.414 I1.987 J-0.172
 G1 X12.715 Y433.532
 G2 X14 Y434 I1.288 J-1.537
 G1 X94.174 Y433.992
 G2 X95.414 Y433.414 I-0.172 J-1.987
 G1 X105.532 Y423.285
 G2 X106 Y422 I-1.537 J-1.288
 G1 X105.992 Y331.826
 G2 X104 Y330 I-1.992 J0.174
 G1 X3.826 Y330.008
 G2 X2 Y332 I0.174 J1.992
 M5 $0 (plasma end)
 G0 X80 Y382
 M3 $0 S1 (plasma start)
 G1 X82 Y382
 G3 X82 Y382 I-28 J0
 M5 $0 (plasma end)
 G0 X110 Y332
 M3 $0 S1 (plasma start)
 G1 X112 Y332
 G1 X112.008 Y422.174
 G2 X112.586 Y423.414 I1.987 J-0.172
 G1 X122.715 Y433.532
 G2 X124 Y434 I1.288 J-1.537
 G1 X204.174 Y433.992
 G2 X205.414 Y433.414 I-0.172 J-1.987
 G1 X215.532 Y423.285
 G2 X216 Y422 I-1.537 J-1.288
 G1 X215.992 Y331.826
 G2 X214 Y330 I-1.992 J0.174
 G1 X113.826 Y330.008
 G2 X112 Y332 I0.174 J1.992
 M5 $0 (plasma end)
 G0 X110 Y452
 M3 $0 S1 (plasma start)
 G1 X112 Y452
 G1 X112.008 Y532.174
 G2 X112.586 Y533.414 I1.987 J-0.172
 G1 X122.664 Y543.488
 G2 X124.941 Y543.765 I1.337 J-1.492
 G3 X201.587 Y542.999 I39.059 J73.235
 G1 X203.155 Y543.813
 G2 X205.414 Y543.414 I0.846 J-1.808
 G1 X215.532 Y533.285
 G2 X216 Y532 I-1.537 J-1.288
 G1 X215.992 Y451.826
 G2 X215.414 Y450.586 I-1.987 J0.172
 G1 X205.285 Y440.468
 G2 X204 Y440 I-1.288 J1.537
 G1 X123.826 Y440.008
 G2 X122.586 Y440.586 I0.172 J1.987
 G1 X112.468 Y450.715
 G2 X112 Y452 I1.537 J1.288
 M5 $0 (plasma end)
 G0 X138.078 Y494.006
 M3 $0 S1 (plasma start)
 G1 X136.019 Y493.026
 G2 X164 Y457.745 I-47.02 J-66.027
 G2 X191.981 Y493.026 I74.993 J-30.74
 G3 X136.036 Y493.417 I-27.981 J-1.026
 G1 X136.019 Y493.026
 M5 $0 (plasma end)
 G0 X44 Y506
 M3 $0 S1 (plasma start)
 G1 X44 Y504
 G1 X64.174 Y503.992
 G2 X66 Y502 I-0.174 J-1.992
 G1 X65.992 Y481.826
 G2 X64 Y480 I-1.992 J0.174
 G1 X43.826 Y480.008
 G2 X42 Y482 I0.174 J1.992
 G1 X42.008 Y502.174
 G2 X44 Y504 I1.992 J-0.174
 M5 $0 (plasma end)
 G0 X28 Y466
 M3 $0 S1 (plasma start)
 G1 X26 Y464
 G1 X82 Y464
 G1 X82 Y520
 G1 X26 Y520
 G1 X26 Y464
 M5 $0 (plasma end)
 G0 X0 Y442
 M3 $0 S1 (plasma start)
 G1 X2 Y442
 G1 X2.008 Y542.174
 G2 X4 Y544 I1.992 J-0.174
 G1 X104.174 Y543.992
 G2 X106 Y542 I-0.174 J-1.992
 G1 X105.992 Y441.826
 G2 X104 Y440 I-1.992 J0.174
 G1 X3.826 Y440.008
 G2 X2 Y442 I0.174 J1.992
 M5 $0 (plasma end)
 ;
 ;begin post-amble
 G40 (cutter compensation: off)
 G90 (distance mode: absolute)
 M5 $-1 (backup stop)
 ;end post-amble
 ;
 ;begin statistics
 ;Pierces = 125
 ;   Cuts = 125,    Length = 33896.55mm
 ;end statistics
 ;
 M30 (end program)
