(Filename: gcode_test_jw.ngc)
(Post processor: LinuxCNC.scpost)
(Date: 10/11/2023)

#<z_feed>=1000
#<xy_feed>=7000
;begin pre-amble
 G21 (units: metric)
 G40 (cutter compensation: off)
 G90 (distance mode: absolute)
 M68 E3 Q0 (velocity 100%)
 G64 P0.254 Q0.025 (tracking tolerances: 0.254mm)
;end pre-amble

(Part: gcode_test)
G00 Z-25.0000
X190.0000 Y162.0000
Z-3.5000
G01 Z-1.5000 F#<z_feed>
X192.0000 F#<xy_feed>
G03 X192.0000 Y162.0000 I-27.9998 J0.0000 F#<xy_feed>
G00 Z-25.0000
X110.0000 Y112.0000
Z-3.5000
G01 Z-1.5000 F#<z_feed>
X112.0000 F#<xy_feed>
X112.0076 Y202.1743
G02 X112.5860 Y203.4140 I1.9873 J-0.1724 F#<xy_feed>
G01 X122.7146 Y213.5319 F#<xy_feed>
G02 X124.0000 Y214.0000 I1.2876 J-1.5369 F#<xy_feed>
G01 X204.1743 Y213.9924 F#<xy_feed>
G02 X205.4140 Y213.4140 I-0.1724 J-1.9873 F#<xy_feed>
G01 X215.5319 Y203.2854 F#<xy_feed>
G02 X216.0000 Y202.0000 I-1.5369 J-1.2876 F#<xy_feed>
G01 X215.9924 Y111.8257 F#<xy_feed>
G02 X214.0000 Y110.0000 I-1.9925 J0.1744 F#<xy_feed>
G01 X113.8257 Y110.0076 F#<xy_feed>
G02 X112.0000 Y112.0000 I0.1744 J1.9925 F#<xy_feed>
G00 Z-25.0000
X80.0000 Y162.0000
Z-3.5000
G01 Z-1.5000 F#<z_feed>
X82.0000 F#<xy_feed>
G03 X82.0000 Y162.0000 I-27.9998 J0.0000 F#<xy_feed>
G00 Z-25.0000
X0.0000 Y112.0000
Z-3.5000
G01 Z-1.5000 F#<z_feed>
X2.0000 F#<xy_feed>
X2.0076 Y202.1743
G02 X2.5860 Y203.4140 I1.9873 J-0.1724 F#<xy_feed>
G01 X12.7146 Y213.5319 F#<xy_feed>
G02 X14.0000 Y214.0000 I1.2876 J-1.5369 F#<xy_feed>
G01 X94.1743 Y213.9924 F#<xy_feed>
G02 X95.4140 Y213.4140 I-0.1724 J-1.9873 F#<xy_feed>
G01 X105.5319 Y203.2854 F#<xy_feed>
G02 X106.0000 Y202.0000 I-1.5369 J-1.2876 F#<xy_feed>
G01 X105.9924 Y111.8257 F#<xy_feed>
G02 X104.0000 Y110.0000 I-1.9925 J0.1744 F#<xy_feed>
G01 X3.8257 Y110.0076 F#<xy_feed>
G02 X2.0000 Y112.0000 I0.1744 J1.9925 F#<xy_feed>
G00 Z-25.0000
X44.0000 Y66.0000
Z-3.5000
G01 Z-1.5000 F#<z_feed>
Y64.0000 F#<xy_feed>
X64.1743 Y63.9924
G02 X66.0000 Y62.0000 I-0.1744 J-1.9925 F#<xy_feed>
G01 X65.9924 Y41.8257 F#<xy_feed>
G02 X64.0000 Y40.0000 I-1.9925 J0.1744 F#<xy_feed>
G01 X43.8257 Y40.0076 F#<xy_feed>
G02 X42.0000 Y42.0000 I0.1744 J1.9925 F#<xy_feed>
G01 X42.0076 Y62.1743 F#<xy_feed>
G02 X44.0000 Y64.0000 I1.9925 J-0.1744 F#<xy_feed>
G00 Z-25.0000
X28.0000 Y26.0000
Z-3.5000
G01 Z-1.5000 F#<z_feed>
X26.0000 Y24.0000 F#<xy_feed>
X82.0000
Y80.0000
X26.0000
Y24.0000
G00 Z-25.0000
X0.0000 Y2.0000
Z-3.5000
G01 Z-1.5000 F#<z_feed>
X2.0000 F#<xy_feed>
X2.0076 Y102.1743
G02 X4.0000 Y104.0000 I1.9925 J-0.1744 F#<xy_feed>
G01 X104.1743 Y103.9924 F#<xy_feed>
G02 X106.0000 Y102.0000 I-0.1744 J-1.9925 F#<xy_feed>
G01 X105.9924 Y1.8257 F#<xy_feed>
G02 X104.0000 Y0.0000 I-1.9925 J0.1744 F#<xy_feed>
G01 X3.8257 Y0.0076 F#<xy_feed>
G02 X2.0000 Y2.0000 I0.1744 J1.9925 F#<xy_feed>
G00 Z-25.0000
X110.0000 Y12.0000
Z-3.5000
G01 Z-1.5000 F#<z_feed>
X112.0000 F#<xy_feed>
X112.0076 Y92.1743
G02 X112.5860 Y93.4140 I1.9873 J-0.1724 F#<xy_feed>
G01 X122.6636 Y103.4876 F#<xy_feed>
G02 X124.9410 Y103.7650 I1.3373 J-1.4916 F#<xy_feed>
G03 X201.5873 Y102.9989 I39.0590 J73.2351
G01 X203.1547 Y103.8128 F#<xy_feed>
G02 X205.4140 Y103.4140 I0.8456 J-1.8085 F#<xy_feed>
G01 X215.5319 Y93.2854 F#<xy_feed>
G02 X216.0000 Y92.0000 I-1.5369 J-1.2876 F#<xy_feed>
G01 X215.9924 Y11.8257 F#<xy_feed>
G02 X215.4140 Y10.5860 I-1.9873 J0.1724 F#<xy_feed>
G01 X205.2854 Y0.4681 F#<xy_feed>
G02 X204.0000 Y0.0000 I-1.2876 J1.5369 F#<xy_feed>
G01 X123.8257 Y0.0076 F#<xy_feed>
G02 X122.5860 Y0.5860 I0.1724 J1.9873 F#<xy_feed>
G01 X112.4681 Y10.7146 F#<xy_feed>
G02 X112.0000 Y12.0000 I1.5369 J1.2876 F#<xy_feed>
G00 Z-25.0000
X138.0780 Y54.0060
Z-3.5000
G01 Z-1.5000 F#<z_feed>
X136.0190 Y53.0260 F#<xy_feed>
G02 X164.0000 Y17.7450 I-47.0199 J-66.0272 F#<xy_feed>
X191.9810 Y53.0260 I74.9934 J-30.7403
G03 X136.0361 Y53.4166 I-27.9810 J-1.0260
G01 X136.0190 Y53.0260 F#<xy_feed>
(Part: gcode_test Duplicate 1)
(Operation: No Offset, 1, T1: Plasma Mild Steel 2mm, 1.5 mm kerf)
G00 Z-25.0000
X410.0000 Y162.0000
Z-3.5000
G01 Z-1.5000 F#<z_feed>
X412.0000 F#<xy_feed>
G03 X412.0000 Y162.0000 I-27.9998 J0.0000 F#<xy_feed>
G00 Z-25.0000
X330.0000 Y112.0000
Z-3.5000
G01 Z-1.5000 F#<z_feed>
X332.0000 F#<xy_feed>
X332.0076 Y202.1743
G02 X332.5860 Y203.4140 I1.9873 J-0.1724 F#<xy_feed>
G01 X342.7146 Y213.5319 F#<xy_feed>
G02 X344.0000 Y214.0000 I1.2876 J-1.5369 F#<xy_feed>
G01 X424.1743 Y213.9924 F#<xy_feed>
G02 X425.4140 Y213.4140 I-0.1724 J-1.9873 F#<xy_feed>
G01 X435.5319 Y203.2854 F#<xy_feed>
G02 X436.0000 Y202.0000 I-1.5369 J-1.2876 F#<xy_feed>
G01 X435.9924 Y111.8257 F#<xy_feed>
G02 X434.0000 Y110.0000 I-1.9925 J0.1744 F#<xy_feed>
G01 X333.8257 Y110.0076 F#<xy_feed>
G02 X332.0000 Y112.0000 I0.1744 J1.9925 F#<xy_feed>
G00 Z-25.0000
X300.0000 Y162.0000
Z-3.5000
G01 Z-1.5000 F#<z_feed>
X302.0000 F#<xy_feed>
G03 X302.0000 Y162.0000 I-27.9998 J0.0000 F#<xy_feed>
G00 Z-25.0000
X220.0000 Y112.0000
Z-3.5000
G01 Z-1.5000 F#<z_feed>
X222.0000 F#<xy_feed>
X222.0076 Y202.1743
G02 X222.5860 Y203.4140 I1.9873 J-0.1724 F#<xy_feed>
G01 X232.7146 Y213.5319 F#<xy_feed>
G02 X234.0000 Y214.0000 I1.2876 J-1.5369 F#<xy_feed>
G01 X314.1743 Y213.9924 F#<xy_feed>
G02 X315.4140 Y213.4140 I-0.1724 J-1.9873 F#<xy_feed>
G01 X325.5319 Y203.2854 F#<xy_feed>
G02 X326.0000 Y202.0000 I-1.5369 J-1.2876 F#<xy_feed>
G01 X325.9924 Y111.8257 F#<xy_feed>
G02 X324.0000 Y110.0000 I-1.9925 J0.1744 F#<xy_feed>
G01 X223.8257 Y110.0076 F#<xy_feed>
G02 X222.0000 Y112.0000 I0.1744 J1.9925 F#<xy_feed>
G00 Z-25.0000
X264.0000 Y66.0000
Z-3.5000
G01 Z-1.5000 F#<z_feed>
Y64.0000 F#<xy_feed>
X284.1743 Y63.9924
G02 X286.0000 Y62.0000 I-0.1744 J-1.9925 F#<xy_feed>
G01 X285.9924 Y41.8257 F#<xy_feed>
G02 X284.0000 Y40.0000 I-1.9925 J0.1744 F#<xy_feed>
G01 X263.8257 Y40.0076 F#<xy_feed>
G02 X262.0000 Y42.0000 I0.1744 J1.9925 F#<xy_feed>
G01 X262.0076 Y62.1743 F#<xy_feed>
G02 X264.0000 Y64.0000 I1.9925 J-0.1744 F#<xy_feed>
G00 Z-25.0000
X248.0000 Y26.0000
Z-3.5000
G01 Z-1.5000 F#<z_feed>
X246.0000 Y24.0000 F#<xy_feed>
X302.0000
Y80.0000
X246.0000
Y24.0000
G00 Z-25.0000
X220.0000 Y2.0000
Z-3.5000
G01 Z-1.5000 F#<z_feed>
X222.0000 F#<xy_feed>
X222.0076 Y102.1743
G02 X224.0000 Y104.0000 I1.9925 J-0.1744 F#<xy_feed>
G01 X324.1743 Y103.9924 F#<xy_feed>
G02 X326.0000 Y102.0000 I-0.1744 J-1.9925 F#<xy_feed>
G01 X325.9924 Y1.8257 F#<xy_feed>
G02 X324.0000 Y0.0000 I-1.9925 J0.1744 F#<xy_feed>
G01 X223.8257 Y0.0076 F#<xy_feed>
G02 X222.0000 Y2.0000 I0.1744 J1.9925 F#<xy_feed>
G00 Z-25.0000
X330.0000 Y12.0000
Z-3.5000
G01 Z-1.5000 F#<z_feed>
X332.0000 F#<xy_feed>
X332.0076 Y92.1743
G02 X332.5860 Y93.4140 I1.9873 J-0.1724 F#<xy_feed>
G01 X342.6636 Y103.4876 F#<xy_feed>
G02 X344.9410 Y103.7650 I1.3373 J-1.4916 F#<xy_feed>
G03 X421.5873 Y102.9989 I39.0590 J73.2351
G01 X423.1547 Y103.8128 F#<xy_feed>
G02 X425.4140 Y103.4140 I0.8456 J-1.8085 F#<xy_feed>
G01 X435.5319 Y93.2854 F#<xy_feed>
G02 X436.0000 Y92.0000 I-1.5369 J-1.2876 F#<xy_feed>
G01 X435.9924 Y11.8257 F#<xy_feed>
G02 X435.4140 Y10.5860 I-1.9873 J0.1724 F#<xy_feed>
G01 X425.2854 Y0.4681 F#<xy_feed>
G02 X424.0000 Y0.0000 I-1.2876 J1.5369 F#<xy_feed>
G01 X343.8257 Y0.0076 F#<xy_feed>
G02 X342.5860 Y0.5860 I0.1724 J1.9873 F#<xy_feed>
G01 X332.4681 Y10.7146 F#<xy_feed>
G02 X332.0000 Y12.0000 I1.5369 J1.2876 F#<xy_feed>
G00 Z-25.0000
X358.0780 Y54.0060
Z-3.5000
G01 Z-1.5000 F#<z_feed>
X356.0190 Y53.0260 F#<xy_feed>
G02 X384.0000 Y17.7450 I-47.0199 J-66.0272 F#<xy_feed>
X411.9810 Y53.0260 I74.9934 J-30.7403
G03 X356.0361 Y53.4166 I-27.9810 J-1.0260
G01 X356.0190 Y53.0260 F#<xy_feed>
(Part: gcode_test Duplicate 2)
(Operation: No Offset, 1, T1: Plasma Mild Steel 2mm, 1.5 mm kerf)
G00 Z-25.0000
X630.0000 Y162.0000
Z-3.5000
G01 Z-1.5000 F#<z_feed>
X632.0000 F#<xy_feed>
G03 X632.0000 Y162.0000 I-27.9998 J0.0000 F#<xy_feed>
G00 Z-25.0000
X550.0000 Y112.0000
Z-3.5000
G01 Z-1.5000 F#<z_feed>
X552.0000 F#<xy_feed>
X552.0076 Y202.1743
G02 X552.5860 Y203.4140 I1.9873 J-0.1724 F#<xy_feed>
G01 X562.7146 Y213.5319 F#<xy_feed>
G02 X564.0000 Y214.0000 I1.2876 J-1.5369 F#<xy_feed>
G01 X644.1743 Y213.9924 F#<xy_feed>
G02 X645.4140 Y213.4140 I-0.1724 J-1.9873 F#<xy_feed>
G01 X655.5319 Y203.2854 F#<xy_feed>
G02 X656.0000 Y202.0000 I-1.5369 J-1.2876 F#<xy_feed>
G01 X655.9924 Y111.8257 F#<xy_feed>
G02 X654.0000 Y110.0000 I-1.9925 J0.1744 F#<xy_feed>
G01 X553.8257 Y110.0076 F#<xy_feed>
G02 X552.0000 Y112.0000 I0.1744 J1.9925 F#<xy_feed>
G00 Z-25.0000
X520.0000 Y162.0000
Z-3.5000
G01 Z-1.5000 F#<z_feed>
X522.0000 F#<xy_feed>
G03 X522.0000 Y162.0000 I-27.9998 J0.0000 F#<xy_feed>
G00 Z-25.0000
X440.0000 Y112.0000
Z-3.5000
G01 Z-1.5000 F#<z_feed>
X442.0000 F#<xy_feed>
X442.0076 Y202.1743
G02 X442.5860 Y203.4140 I1.9873 J-0.1724 F#<xy_feed>
G01 X452.7146 Y213.5319 F#<xy_feed>
G02 X454.0000 Y214.0000 I1.2876 J-1.5369 F#<xy_feed>
G01 X534.1743 Y213.9924 F#<xy_feed>
G02 X535.4140 Y213.4140 I-0.1724 J-1.9873 F#<xy_feed>
G01 X545.5319 Y203.2854 F#<xy_feed>
G02 X546.0000 Y202.0000 I-1.5369 J-1.2876 F#<xy_feed>
G01 X545.9924 Y111.8257 F#<xy_feed>
G02 X544.0000 Y110.0000 I-1.9925 J0.1744 F#<xy_feed>
G01 X443.8257 Y110.0076 F#<xy_feed>
G02 X442.0000 Y112.0000 I0.1744 J1.9925 F#<xy_feed>
G00 Z-25.0000
X484.0000 Y66.0000
Z-3.5000
G01 Z-1.5000 F#<z_feed>
Y64.0000 F#<xy_feed>
X504.1743 Y63.9924
G02 X506.0000 Y62.0000 I-0.1744 J-1.9925 F#<xy_feed>
G01 X505.9924 Y41.8257 F#<xy_feed>
G02 X504.0000 Y40.0000 I-1.9925 J0.1744 F#<xy_feed>
G01 X483.8257 Y40.0076 F#<xy_feed>
G02 X482.0000 Y42.0000 I0.1744 J1.9925 F#<xy_feed>
G01 X482.0076 Y62.1743 F#<xy_feed>
G02 X484.0000 Y64.0000 I1.9925 J-0.1744 F#<xy_feed>
G00 Z-25.0000
X468.0000 Y26.0000
Z-3.5000
G01 Z-1.5000 F#<z_feed>
X466.0000 Y24.0000 F#<xy_feed>
X522.0000
Y80.0000
X466.0000
Y24.0000
G00 Z-25.0000
X440.0000 Y2.0000
Z-3.5000
G01 Z-1.5000 F#<z_feed>
X442.0000 F#<xy_feed>
X442.0076 Y102.1743
G02 X444.0000 Y104.0000 I1.9925 J-0.1744 F#<xy_feed>
G01 X544.1743 Y103.9924 F#<xy_feed>
G02 X546.0000 Y102.0000 I-0.1744 J-1.9925 F#<xy_feed>
G01 X545.9924 Y1.8257 F#<xy_feed>
G02 X544.0000 Y0.0000 I-1.9925 J0.1744 F#<xy_feed>
G01 X443.8257 Y0.0076 F#<xy_feed>
G02 X442.0000 Y2.0000 I0.1744 J1.9925 F#<xy_feed>
G00 Z-25.0000
X550.0000 Y12.0000
Z-3.5000
G01 Z-1.5000 F#<z_feed>
X552.0000 F#<xy_feed>
X552.0076 Y92.1743
G02 X552.5860 Y93.4140 I1.9873 J-0.1724 F#<xy_feed>
G01 X562.6636 Y103.4876 F#<xy_feed>
G02 X564.9410 Y103.7650 I1.3373 J-1.4916 F#<xy_feed>
G03 X641.5873 Y102.9989 I39.0590 J73.2351
G01 X643.1547 Y103.8128 F#<xy_feed>
G02 X645.4140 Y103.4140 I0.8456 J-1.8085 F#<xy_feed>
G01 X655.5319 Y93.2854 F#<xy_feed>
G02 X656.0000 Y92.0000 I-1.5369 J-1.2876 F#<xy_feed>
G01 X655.9924 Y11.8257 F#<xy_feed>
G02 X655.4140 Y10.5860 I-1.9873 J0.1724 F#<xy_feed>
G01 X645.2854 Y0.4681 F#<xy_feed>
G02 X644.0000 Y0.0000 I-1.2876 J1.5369 F#<xy_feed>
G01 X563.8257 Y0.0076 F#<xy_feed>
G02 X562.5860 Y0.5860 I0.1724 J1.9873 F#<xy_feed>
G01 X552.4681 Y10.7146 F#<xy_feed>
G02 X552.0000 Y12.0000 I1.5369 J1.2876 F#<xy_feed>
G00 Z-25.0000
X578.0780 Y54.0060
Z-3.5000
G01 Z-1.5000 F#<z_feed>
X576.0190 Y53.0260 F#<xy_feed>
G02 X604.0000 Y17.7450 I-47.0199 J-66.0272 F#<xy_feed>
X631.9810 Y53.0260 I74.9934 J-30.7403
G03 X576.0361 Y53.4166 I-27.9810 J-1.0260
G01 X576.0190 Y53.0260 F#<xy_feed>
(Part: gcode_test Duplicate 3)
(Operation: No Offset, 1, T1: Plasma Mild Steel 2mm, 1.5 mm kerf)
G00 Z-25.0000
X850.0000 Y162.0000
Z-3.5000
G01 Z-1.5000 F#<z_feed>
X852.0000 F#<xy_feed>
G03 X852.0000 Y162.0000 I-27.9998 J0.0000 F#<xy_feed>
G00 Z-25.0000
X770.0000 Y112.0000
Z-3.5000
G01 Z-1.5000 F#<z_feed>
X772.0000 F#<xy_feed>
X772.0076 Y202.1743
G02 X772.5860 Y203.4140 I1.9873 J-0.1724 F#<xy_feed>
G01 X782.7146 Y213.5319 F#<xy_feed>
G02 X784.0000 Y214.0000 I1.2876 J-1.5369 F#<xy_feed>
G01 X864.1743 Y213.9924 F#<xy_feed>
G02 X865.4140 Y213.4140 I-0.1724 J-1.9873 F#<xy_feed>
G01 X875.5319 Y203.2854 F#<xy_feed>
G02 X876.0000 Y202.0000 I-1.5369 J-1.2876 F#<xy_feed>
G01 X875.9924 Y111.8257 F#<xy_feed>
G02 X874.0000 Y110.0000 I-1.9925 J0.1744 F#<xy_feed>
G01 X773.8257 Y110.0076 F#<xy_feed>
G02 X772.0000 Y112.0000 I0.1744 J1.9925 F#<xy_feed>
G00 Z-25.0000
X740.0000 Y162.0000
Z-3.5000
G01 Z-1.5000 F#<z_feed>
X742.0000 F#<xy_feed>
G03 X742.0000 Y162.0000 I-27.9998 J0.0000 F#<xy_feed>
G00 Z-25.0000
X660.0000 Y112.0000
Z-3.5000
G01 Z-1.5000 F#<z_feed>
X662.0000 F#<xy_feed>
X662.0076 Y202.1743
G02 X662.5860 Y203.4140 I1.9873 J-0.1724 F#<xy_feed>
G01 X672.7146 Y213.5319 F#<xy_feed>
G02 X674.0000 Y214.0000 I1.2876 J-1.5369 F#<xy_feed>
G01 X754.1743 Y213.9924 F#<xy_feed>
G02 X755.4140 Y213.4140 I-0.1724 J-1.9873 F#<xy_feed>
G01 X765.5319 Y203.2854 F#<xy_feed>
G02 X766.0000 Y202.0000 I-1.5369 J-1.2876 F#<xy_feed>
G01 X765.9924 Y111.8257 F#<xy_feed>
G02 X764.0000 Y110.0000 I-1.9925 J0.1744 F#<xy_feed>
G01 X663.8257 Y110.0076 F#<xy_feed>
G02 X662.0000 Y112.0000 I0.1744 J1.9925 F#<xy_feed>
G00 Z-25.0000
X704.0000 Y66.0000
Z-3.5000
G01 Z-1.5000 F#<z_feed>
Y64.0000 F#<xy_feed>
X724.1743 Y63.9924
G02 X726.0000 Y62.0000 I-0.1744 J-1.9925 F#<xy_feed>
G01 X725.9924 Y41.8257 F#<xy_feed>
G02 X724.0000 Y40.0000 I-1.9925 J0.1744 F#<xy_feed>
G01 X703.8257 Y40.0076 F#<xy_feed>
G02 X702.0000 Y42.0000 I0.1744 J1.9925 F#<xy_feed>
G01 X702.0076 Y62.1743 F#<xy_feed>
G02 X704.0000 Y64.0000 I1.9925 J-0.1744 F#<xy_feed>
G00 Z-25.0000
X688.0000 Y26.0000
Z-3.5000
G01 Z-1.5000 F#<z_feed>
X686.0000 Y24.0000 F#<xy_feed>
X742.0000
Y80.0000
X686.0000
Y24.0000
G00 Z-25.0000
X660.0000 Y2.0000
Z-3.5000
G01 Z-1.5000 F#<z_feed>
X662.0000 F#<xy_feed>
X662.0076 Y102.1743
G02 X664.0000 Y104.0000 I1.9925 J-0.1744 F#<xy_feed>
G01 X764.1743 Y103.9924 F#<xy_feed>
G02 X766.0000 Y102.0000 I-0.1744 J-1.9925 F#<xy_feed>
G01 X765.9924 Y1.8257 F#<xy_feed>
G02 X764.0000 Y0.0000 I-1.9925 J0.1744 F#<xy_feed>
G01 X663.8257 Y0.0076 F#<xy_feed>
G02 X662.0000 Y2.0000 I0.1744 J1.9925 F#<xy_feed>
G00 Z-25.0000
X770.0000 Y12.0000
Z-3.5000
G01 Z-1.5000 F#<z_feed>
X772.0000 F#<xy_feed>
X772.0076 Y92.1743
G02 X772.5860 Y93.4140 I1.9873 J-0.1724 F#<xy_feed>
G01 X782.6636 Y103.4876 F#<xy_feed>
G02 X784.9410 Y103.7650 I1.3373 J-1.4916 F#<xy_feed>
G03 X861.5873 Y102.9989 I39.0590 J73.2351
G01 X863.1547 Y103.8128 F#<xy_feed>
G02 X865.4140 Y103.4140 I0.8456 J-1.8085 F#<xy_feed>
G01 X875.5319 Y93.2854 F#<xy_feed>
G02 X876.0000 Y92.0000 I-1.5369 J-1.2876 F#<xy_feed>
G01 X875.9924 Y11.8257 F#<xy_feed>
G02 X875.4140 Y10.5860 I-1.9873 J0.1724 F#<xy_feed>
G01 X865.2854 Y0.4681 F#<xy_feed>
G02 X864.0000 Y0.0000 I-1.2876 J1.5369 F#<xy_feed>
G01 X783.8257 Y0.0076 F#<xy_feed>
G02 X782.5860 Y0.5860 I0.1724 J1.9873 F#<xy_feed>
G01 X772.4681 Y10.7146 F#<xy_feed>
G02 X772.0000 Y12.0000 I1.5369 J1.2876 F#<xy_feed>
G00 Z-25.0000
X798.0780 Y54.0060
Z-3.5000
G01 Z-1.5000 F#<z_feed>
X796.0190 Y53.0260 F#<xy_feed>
G02 X824.0000 Y17.7450 I-47.0199 J-66.0272 F#<xy_feed>
X851.9810 Y53.0260 I74.9934 J-30.7403
G03 X796.0361 Y53.4166 I-27.9810 J-1.0260
G01 X796.0190 Y53.0260 F#<xy_feed>
(Part: gcode_test Duplicate 4)
(Operation: No Offset, 1, T1: Plasma Mild Steel 2mm, 1.5 mm kerf)
G00 Z-25.0000
X1070.0000 Y162.0000
Z-3.5000
G01 Z-1.5000 F#<z_feed>
X1072.0000 F#<xy_feed>
G03 X1072.0000 Y162.0000 I-27.9998 J0.0000 F#<xy_feed>
G00 Z-25.0000
X990.0000 Y112.0000
Z-3.5000
G01 Z-1.5000 F#<z_feed>
X992.0000 F#<xy_feed>
X992.0076 Y202.1743
G02 X992.5860 Y203.4140 I1.9873 J-0.1724 F#<xy_feed>
G01 X1002.7146 Y213.5319 F#<xy_feed>
G02 X1004.0000 Y214.0000 I1.2876 J-1.5369 F#<xy_feed>
G01 X1084.1743 Y213.9924 F#<xy_feed>
G02 X1085.4140 Y213.4140 I-0.1724 J-1.9873 F#<xy_feed>
G01 X1095.5319 Y203.2854 F#<xy_feed>
G02 X1096.0000 Y202.0000 I-1.5369 J-1.2876 F#<xy_feed>
G01 X1095.9924 Y111.8257 F#<xy_feed>
G02 X1094.0000 Y110.0000 I-1.9925 J0.1744 F#<xy_feed>
G01 X993.8257 Y110.0076 F#<xy_feed>
G02 X992.0000 Y112.0000 I0.1744 J1.9925 F#<xy_feed>
G00 Z-25.0000
X960.0000 Y162.0000
Z-3.5000
G01 Z-1.5000 F#<z_feed>
X962.0000 F#<xy_feed>
G03 X962.0000 Y162.0000 I-27.9998 J0.0000 F#<xy_feed>
G00 Z-25.0000
X880.0000 Y112.0000
Z-3.5000
G01 Z-1.5000 F#<z_feed>
X882.0000 F#<xy_feed>
X882.0076 Y202.1743
G02 X882.5860 Y203.4140 I1.9873 J-0.1724 F#<xy_feed>
G01 X892.7146 Y213.5319 F#<xy_feed>
G02 X894.0000 Y214.0000 I1.2876 J-1.5369 F#<xy_feed>
G01 X974.1743 Y213.9924 F#<xy_feed>
G02 X975.4140 Y213.4140 I-0.1724 J-1.9873 F#<xy_feed>
G01 X985.5319 Y203.2854 F#<xy_feed>
G02 X986.0000 Y202.0000 I-1.5369 J-1.2876 F#<xy_feed>
G01 X985.9924 Y111.8257 F#<xy_feed>
G02 X984.0000 Y110.0000 I-1.9925 J0.1744 F#<xy_feed>
G01 X883.8257 Y110.0076 F#<xy_feed>
G02 X882.0000 Y112.0000 I0.1744 J1.9925 F#<xy_feed>
G00 Z-25.0000
X924.0000 Y66.0000
Z-3.5000
G01 Z-1.5000 F#<z_feed>
Y64.0000 F#<xy_feed>
X944.1743 Y63.9924
G02 X946.0000 Y62.0000 I-0.1744 J-1.9925 F#<xy_feed>
G01 X945.9924 Y41.8257 F#<xy_feed>
G02 X944.0000 Y40.0000 I-1.9925 J0.1744 F#<xy_feed>
G01 X923.8257 Y40.0076 F#<xy_feed>
G02 X922.0000 Y42.0000 I0.1744 J1.9925 F#<xy_feed>
G01 X922.0076 Y62.1743 F#<xy_feed>
G02 X924.0000 Y64.0000 I1.9925 J-0.1744 F#<xy_feed>
G00 Z-25.0000
X908.0000 Y26.0000
Z-3.5000
G01 Z-1.5000 F#<z_feed>
X906.0000 Y24.0000 F#<xy_feed>
X962.0000
Y80.0000
X906.0000
Y24.0000
G00 Z-25.0000
X880.0000 Y2.0000
Z-3.5000
G01 Z-1.5000 F#<z_feed>
X882.0000 F#<xy_feed>
X882.0076 Y102.1743
G02 X884.0000 Y104.0000 I1.9925 J-0.1744 F#<xy_feed>
G01 X984.1743 Y103.9924 F#<xy_feed>
G02 X986.0000 Y102.0000 I-0.1744 J-1.9925 F#<xy_feed>
G01 X985.9924 Y1.8257 F#<xy_feed>
G02 X984.0000 Y0.0000 I-1.9925 J0.1744 F#<xy_feed>
G01 X883.8257 Y0.0076 F#<xy_feed>
G02 X882.0000 Y2.0000 I0.1744 J1.9925 F#<xy_feed>
G00 Z-25.0000
X990.0000 Y12.0000
Z-3.5000
G01 Z-1.5000 F#<z_feed>
X992.0000 F#<xy_feed>
X992.0076 Y92.1743
G02 X992.5860 Y93.4140 I1.9873 J-0.1724 F#<xy_feed>
G01 X1002.6636 Y103.4876 F#<xy_feed>
G02 X1004.9410 Y103.7650 I1.3373 J-1.4916 F#<xy_feed>
G03 X1081.5873 Y102.9989 I39.0590 J73.2351
G01 X1083.1547 Y103.8128 F#<xy_feed>
G02 X1085.4140 Y103.4140 I0.8456 J-1.8085 F#<xy_feed>
G01 X1095.5319 Y93.2854 F#<xy_feed>
G02 X1096.0000 Y92.0000 I-1.5369 J-1.2876 F#<xy_feed>
G01 X1095.9924 Y11.8257 F#<xy_feed>
G02 X1095.4140 Y10.5860 I-1.9873 J0.1724 F#<xy_feed>
G01 X1085.2854 Y0.4681 F#<xy_feed>
G02 X1084.0000 Y0.0000 I-1.2876 J1.5369 F#<xy_feed>
G01 X1003.8257 Y0.0076 F#<xy_feed>
G02 X1002.5860 Y0.5860 I0.1724 J1.9873 F#<xy_feed>
G01 X992.4681 Y10.7146 F#<xy_feed>
G02 X992.0000 Y12.0000 I1.5369 J1.2876 F#<xy_feed>
G00 Z-25.0000
X1018.0780 Y54.0060
Z-3.5000
G01 Z-1.5000 F#<z_feed>
X1016.0190 Y53.0260 F#<xy_feed>
G02 X1044.0000 Y17.7450 I-47.0199 J-66.0272 F#<xy_feed>
X1071.9810 Y53.0260 I74.9934 J-30.7403
G03 X1016.0361 Y53.4166 I-27.9810 J-1.0260
G01 X1016.0190 Y53.0260 F#<xy_feed>
(Part: gcode_test Duplicate 5)
(Operation: No Offset, 1, T1: Plasma Mild Steel 2mm, 1.5 mm kerf)
G00 Z-25.0000
X190.0000 Y382.0000
Z-3.5000
G01 Z-1.5000 F#<z_feed>
X192.0000 F#<xy_feed>
G03 X192.0000 Y382.0000 I-27.9998 J0.0000 F#<xy_feed>
G00 Z-25.0000
X110.0000 Y332.0000
Z-3.5000
G01 Z-1.5000 F#<z_feed>
X112.0000 F#<xy_feed>
X112.0076 Y422.1743
G02 X112.5860 Y423.4140 I1.9873 J-0.1724 F#<xy_feed>
G01 X122.7146 Y433.5319 F#<xy_feed>
G02 X124.0000 Y434.0000 I1.2876 J-1.5369 F#<xy_feed>
G01 X204.1743 Y433.9924 F#<xy_feed>
G02 X205.4140 Y433.4140 I-0.1724 J-1.9873 F#<xy_feed>
G01 X215.5319 Y423.2854 F#<xy_feed>
G02 X216.0000 Y422.0000 I-1.5369 J-1.2876 F#<xy_feed>
G01 X215.9924 Y331.8257 F#<xy_feed>
G02 X214.0000 Y330.0000 I-1.9925 J0.1744 F#<xy_feed>
G01 X113.8257 Y330.0076 F#<xy_feed>
G02 X112.0000 Y332.0000 I0.1744 J1.9925 F#<xy_feed>
G00 Z-25.0000
X80.0000 Y382.0000
Z-3.5000
G01 Z-1.5000 F#<z_feed>
X82.0000 F#<xy_feed>
G03 X82.0000 Y382.0000 I-27.9998 J0.0000 F#<xy_feed>
G00 Z-25.0000
X0.0000 Y332.0000
Z-3.5000
G01 Z-1.5000 F#<z_feed>
X2.0000 F#<xy_feed>
X2.0076 Y422.1743
G02 X2.5860 Y423.4140 I1.9873 J-0.1724 F#<xy_feed>
G01 X12.7146 Y433.5319 F#<xy_feed>
G02 X14.0000 Y434.0000 I1.2876 J-1.5369 F#<xy_feed>
G01 X94.1743 Y433.9924 F#<xy_feed>
G02 X95.4140 Y433.4140 I-0.1724 J-1.9873 F#<xy_feed>
G01 X105.5319 Y423.2854 F#<xy_feed>
G02 X106.0000 Y422.0000 I-1.5369 J-1.2876 F#<xy_feed>
G01 X105.9924 Y331.8257 F#<xy_feed>
G02 X104.0000 Y330.0000 I-1.9925 J0.1744 F#<xy_feed>
G01 X3.8257 Y330.0076 F#<xy_feed>
G02 X2.0000 Y332.0000 I0.1744 J1.9925 F#<xy_feed>
G00 Z-25.0000
X44.0000 Y286.0000
Z-3.5000
G01 Z-1.5000 F#<z_feed>
Y284.0000 F#<xy_feed>
X64.1743 Y283.9924
G02 X66.0000 Y282.0000 I-0.1744 J-1.9925 F#<xy_feed>
G01 X65.9924 Y261.8257 F#<xy_feed>
G02 X64.0000 Y260.0000 I-1.9925 J0.1744 F#<xy_feed>
G01 X43.8257 Y260.0076 F#<xy_feed>
G02 X42.0000 Y262.0000 I0.1744 J1.9925 F#<xy_feed>
G01 X42.0076 Y282.1743 F#<xy_feed>
G02 X44.0000 Y284.0000 I1.9925 J-0.1744 F#<xy_feed>
G00 Z-25.0000
X28.0000 Y246.0000
Z-3.5000
G01 Z-1.5000 F#<z_feed>
X26.0000 Y244.0000 F#<xy_feed>
X82.0000
Y300.0000
X26.0000
Y244.0000
G00 Z-25.0000
X0.0000 Y222.0000
Z-3.5000
G01 Z-1.5000 F#<z_feed>
X2.0000 F#<xy_feed>
X2.0076 Y322.1743
G02 X4.0000 Y324.0000 I1.9925 J-0.1744 F#<xy_feed>
G01 X104.1743 Y323.9924 F#<xy_feed>
G02 X106.0000 Y322.0000 I-0.1744 J-1.9925 F#<xy_feed>
G01 X105.9924 Y221.8257 F#<xy_feed>
G02 X104.0000 Y220.0000 I-1.9925 J0.1744 F#<xy_feed>
G01 X3.8257 Y220.0076 F#<xy_feed>
G02 X2.0000 Y222.0000 I0.1744 J1.9925 F#<xy_feed>
G00 Z-25.0000
X110.0000 Y232.0000
Z-3.5000
G01 Z-1.5000 F#<z_feed>
X112.0000 F#<xy_feed>
X112.0076 Y312.1743
G02 X112.5860 Y313.4140 I1.9873 J-0.1724 F#<xy_feed>
G01 X122.6636 Y323.4876 F#<xy_feed>
G02 X124.9410 Y323.7650 I1.3373 J-1.4916 F#<xy_feed>
G03 X201.5873 Y322.9989 I39.0590 J73.2351
G01 X203.1547 Y323.8128 F#<xy_feed>
G02 X205.4140 Y323.4140 I0.8456 J-1.8085 F#<xy_feed>
G01 X215.5319 Y313.2854 F#<xy_feed>
G02 X216.0000 Y312.0000 I-1.5369 J-1.2876 F#<xy_feed>
G01 X215.9924 Y231.8257 F#<xy_feed>
G02 X215.4140 Y230.5860 I-1.9873 J0.1724 F#<xy_feed>
G01 X205.2854 Y220.4681 F#<xy_feed>
G02 X204.0000 Y220.0000 I-1.2876 J1.5369 F#<xy_feed>
G01 X123.8257 Y220.0076 F#<xy_feed>
G02 X122.5860 Y220.5860 I0.1724 J1.9873 F#<xy_feed>
G01 X112.4681 Y230.7146 F#<xy_feed>
G02 X112.0000 Y232.0000 I1.5369 J1.2876 F#<xy_feed>
G00 Z-25.0000
X138.0780 Y274.0060
Z-3.5000
G01 Z-1.5000 F#<z_feed>
X136.0190 Y273.0260 F#<xy_feed>
G02 X164.0000 Y237.7450 I-47.0199 J-66.0272 F#<xy_feed>
X191.9810 Y273.0260 I74.9934 J-30.7403
G03 X136.0361 Y273.4166 I-27.9810 J-1.0260
G01 X136.0190 Y273.0260 F#<xy_feed>
(Part: gcode_test Duplicate 6)
(Operation: No Offset, 1, T1: Plasma Mild Steel 2mm, 1.5 mm kerf)
G00 Z-25.0000
X410.0000 Y382.0000
Z-3.5000
G01 Z-1.5000 F#<z_feed>
X412.0000 F#<xy_feed>
G03 X412.0000 Y382.0000 I-27.9998 J0.0000 F#<xy_feed>
G00 Z-25.0000
X330.0000 Y332.0000
Z-3.5000
G01 Z-1.5000 F#<z_feed>
X332.0000 F#<xy_feed>
X332.0076 Y422.1743
G02 X332.5860 Y423.4140 I1.9873 J-0.1724 F#<xy_feed>
G01 X342.7146 Y433.5319 F#<xy_feed>
G02 X344.0000 Y434.0000 I1.2876 J-1.5369 F#<xy_feed>
G01 X424.1743 Y433.9924 F#<xy_feed>
G02 X425.4140 Y433.4140 I-0.1724 J-1.9873 F#<xy_feed>
G01 X435.5319 Y423.2854 F#<xy_feed>
G02 X436.0000 Y422.0000 I-1.5369 J-1.2876 F#<xy_feed>
G01 X435.9924 Y331.8257 F#<xy_feed>
G02 X434.0000 Y330.0000 I-1.9925 J0.1744 F#<xy_feed>
G01 X333.8257 Y330.0076 F#<xy_feed>
G02 X332.0000 Y332.0000 I0.1744 J1.9925 F#<xy_feed>
G00 Z-25.0000
X300.0000 Y382.0000
Z-3.5000
G01 Z-1.5000 F#<z_feed>
X302.0000 F#<xy_feed>
G03 X302.0000 Y382.0000 I-27.9998 J0.0000 F#<xy_feed>
G00 Z-25.0000
X220.0000 Y332.0000
Z-3.5000
G01 Z-1.5000 F#<z_feed>
X222.0000 F#<xy_feed>
X222.0076 Y422.1743
G02 X222.5860 Y423.4140 I1.9873 J-0.1724 F#<xy_feed>
G01 X232.7146 Y433.5319 F#<xy_feed>
G02 X234.0000 Y434.0000 I1.2876 J-1.5369 F#<xy_feed>
G01 X314.1743 Y433.9924 F#<xy_feed>
G02 X315.4140 Y433.4140 I-0.1724 J-1.9873 F#<xy_feed>
G01 X325.5319 Y423.2854 F#<xy_feed>
G02 X326.0000 Y422.0000 I-1.5369 J-1.2876 F#<xy_feed>
G01 X325.9924 Y331.8257 F#<xy_feed>
G02 X324.0000 Y330.0000 I-1.9925 J0.1744 F#<xy_feed>
G01 X223.8257 Y330.0076 F#<xy_feed>
G02 X222.0000 Y332.0000 I0.1744 J1.9925 F#<xy_feed>
G00 Z-25.0000
X264.0000 Y286.0000
Z-3.5000
G01 Z-1.5000 F#<z_feed>
Y284.0000 F#<xy_feed>
X284.1743 Y283.9924
G02 X286.0000 Y282.0000 I-0.1744 J-1.9925 F#<xy_feed>
G01 X285.9924 Y261.8257 F#<xy_feed>
G02 X284.0000 Y260.0000 I-1.9925 J0.1744 F#<xy_feed>
G01 X263.8257 Y260.0076 F#<xy_feed>
G02 X262.0000 Y262.0000 I0.1744 J1.9925 F#<xy_feed>
G01 X262.0076 Y282.1743 F#<xy_feed>
G02 X264.0000 Y284.0000 I1.9925 J-0.1744 F#<xy_feed>
G00 Z-25.0000
X248.0000 Y246.0000
Z-3.5000
G01 Z-1.5000 F#<z_feed>
X246.0000 Y244.0000 F#<xy_feed>
X302.0000
Y300.0000
X246.0000
Y244.0000
G00 Z-25.0000
X220.0000 Y222.0000
Z-3.5000
G01 Z-1.5000 F#<z_feed>
X222.0000 F#<xy_feed>
X222.0076 Y322.1743
G02 X224.0000 Y324.0000 I1.9925 J-0.1744 F#<xy_feed>
G01 X324.1743 Y323.9924 F#<xy_feed>
G02 X326.0000 Y322.0000 I-0.1744 J-1.9925 F#<xy_feed>
G01 X325.9924 Y221.8257 F#<xy_feed>
G02 X324.0000 Y220.0000 I-1.9925 J0.1744 F#<xy_feed>
G01 X223.8257 Y220.0076 F#<xy_feed>
G02 X222.0000 Y222.0000 I0.1744 J1.9925 F#<xy_feed>
G00 Z-25.0000
X330.0000 Y232.0000
Z-3.5000
G01 Z-1.5000 F#<z_feed>
X332.0000 F#<xy_feed>
X332.0076 Y312.1743
G02 X332.5860 Y313.4140 I1.9873 J-0.1724 F#<xy_feed>
G01 X342.6636 Y323.4876 F#<xy_feed>
G02 X344.9410 Y323.7650 I1.3373 J-1.4916 F#<xy_feed>
G03 X421.5873 Y322.9989 I39.0590 J73.2351
G01 X423.1547 Y323.8128 F#<xy_feed>
G02 X425.4140 Y323.4140 I0.8456 J-1.8085 F#<xy_feed>
G01 X435.5319 Y313.2854 F#<xy_feed>
G02 X436.0000 Y312.0000 I-1.5369 J-1.2876 F#<xy_feed>
G01 X435.9924 Y231.8257 F#<xy_feed>
G02 X435.4140 Y230.5860 I-1.9873 J0.1724 F#<xy_feed>
G01 X425.2854 Y220.4681 F#<xy_feed>
G02 X424.0000 Y220.0000 I-1.2876 J1.5369 F#<xy_feed>
G01 X343.8257 Y220.0076 F#<xy_feed>
G02 X342.5860 Y220.5860 I0.1724 J1.9873 F#<xy_feed>
G01 X332.4681 Y230.7146 F#<xy_feed>
G02 X332.0000 Y232.0000 I1.5369 J1.2876 F#<xy_feed>
G00 Z-25.0000
X358.0780 Y274.0060
Z-3.5000
G01 Z-1.5000 F#<z_feed>
X356.0190 Y273.0260 F#<xy_feed>
G02 X384.0000 Y237.7450 I-47.0199 J-66.0272 F#<xy_feed>
X411.9810 Y273.0260 I74.9934 J-30.7403
G03 X356.0361 Y273.4166 I-27.9810 J-1.0260
G01 X356.0190 Y273.0260 F#<xy_feed>
(Part: gcode_test Duplicate 7)
(Operation: No Offset, 1, T1: Plasma Mild Steel 2mm, 1.5 mm kerf)
G00 Z-25.0000
X630.0000 Y382.0000
Z-3.5000
G01 Z-1.5000 F#<z_feed>
X632.0000 F#<xy_feed>
G03 X632.0000 Y382.0000 I-27.9998 J0.0000 F#<xy_feed>
G00 Z-25.0000
X550.0000 Y332.0000
Z-3.5000
G01 Z-1.5000 F#<z_feed>
X552.0000 F#<xy_feed>
X552.0076 Y422.1743
G02 X552.5860 Y423.4140 I1.9873 J-0.1724 F#<xy_feed>
G01 X562.7146 Y433.5319 F#<xy_feed>
G02 X564.0000 Y434.0000 I1.2876 J-1.5369 F#<xy_feed>
G01 X644.1743 Y433.9924 F#<xy_feed>
G02 X645.4140 Y433.4140 I-0.1724 J-1.9873 F#<xy_feed>
G01 X655.5319 Y423.2854 F#<xy_feed>
G02 X656.0000 Y422.0000 I-1.5369 J-1.2876 F#<xy_feed>
G01 X655.9924 Y331.8257 F#<xy_feed>
G02 X654.0000 Y330.0000 I-1.9925 J0.1744 F#<xy_feed>
G01 X553.8257 Y330.0076 F#<xy_feed>
G02 X552.0000 Y332.0000 I0.1744 J1.9925 F#<xy_feed>
G00 Z-25.0000
X520.0000 Y382.0000
Z-3.5000
G01 Z-1.5000 F#<z_feed>
X522.0000 F#<xy_feed>
G03 X522.0000 Y382.0000 I-27.9998 J0.0000 F#<xy_feed>
G00 Z-25.0000
X440.0000 Y332.0000
Z-3.5000
G01 Z-1.5000 F#<z_feed>
X442.0000 F#<xy_feed>
X442.0076 Y422.1743
G02 X442.5860 Y423.4140 I1.9873 J-0.1724 F#<xy_feed>
G01 X452.7146 Y433.5319 F#<xy_feed>
G02 X454.0000 Y434.0000 I1.2876 J-1.5369 F#<xy_feed>
G01 X534.1743 Y433.9924 F#<xy_feed>
G02 X535.4140 Y433.4140 I-0.1724 J-1.9873 F#<xy_feed>
G01 X545.5319 Y423.2854 F#<xy_feed>
G02 X546.0000 Y422.0000 I-1.5369 J-1.2876 F#<xy_feed>
G01 X545.9924 Y331.8257 F#<xy_feed>
G02 X544.0000 Y330.0000 I-1.9925 J0.1744 F#<xy_feed>
G01 X443.8257 Y330.0076 F#<xy_feed>
G02 X442.0000 Y332.0000 I0.1744 J1.9925 F#<xy_feed>
G00 Z-25.0000
X484.0000 Y286.0000
Z-3.5000
G01 Z-1.5000 F#<z_feed>
Y284.0000 F#<xy_feed>
X504.1743 Y283.9924
G02 X506.0000 Y282.0000 I-0.1744 J-1.9925 F#<xy_feed>
G01 X505.9924 Y261.8257 F#<xy_feed>
G02 X504.0000 Y260.0000 I-1.9925 J0.1744 F#<xy_feed>
G01 X483.8257 Y260.0076 F#<xy_feed>
G02 X482.0000 Y262.0000 I0.1744 J1.9925 F#<xy_feed>
G01 X482.0076 Y282.1743 F#<xy_feed>
G02 X484.0000 Y284.0000 I1.9925 J-0.1744 F#<xy_feed>
G00 Z-25.0000
X468.0000 Y246.0000
Z-3.5000
G01 Z-1.5000 F#<z_feed>
X466.0000 Y244.0000 F#<xy_feed>
X522.0000
Y300.0000
X466.0000
Y244.0000
G00 Z-25.0000
X440.0000 Y222.0000
Z-3.5000
G01 Z-1.5000 F#<z_feed>
X442.0000 F#<xy_feed>
X442.0076 Y322.1743
G02 X444.0000 Y324.0000 I1.9925 J-0.1744 F#<xy_feed>
G01 X544.1743 Y323.9924 F#<xy_feed>
G02 X546.0000 Y322.0000 I-0.1744 J-1.9925 F#<xy_feed>
G01 X545.9924 Y221.8257 F#<xy_feed>
G02 X544.0000 Y220.0000 I-1.9925 J0.1744 F#<xy_feed>
G01 X443.8257 Y220.0076 F#<xy_feed>
G02 X442.0000 Y222.0000 I0.1744 J1.9925 F#<xy_feed>
G00 Z-25.0000
X550.0000 Y232.0000
Z-3.5000
G01 Z-1.5000 F#<z_feed>
X552.0000 F#<xy_feed>
X552.0076 Y312.1743
G02 X552.5860 Y313.4140 I1.9873 J-0.1724 F#<xy_feed>
G01 X562.6636 Y323.4876 F#<xy_feed>
G02 X564.9410 Y323.7650 I1.3373 J-1.4916 F#<xy_feed>
G03 X641.5873 Y322.9989 I39.0590 J73.2351
G01 X643.1547 Y323.8128 F#<xy_feed>
G02 X645.4140 Y323.4140 I0.8456 J-1.8085 F#<xy_feed>
G01 X655.5319 Y313.2854 F#<xy_feed>
G02 X656.0000 Y312.0000 I-1.5369 J-1.2876 F#<xy_feed>
G01 X655.9924 Y231.8257 F#<xy_feed>
G02 X655.4140 Y230.5860 I-1.9873 J0.1724 F#<xy_feed>
G01 X645.2854 Y220.4681 F#<xy_feed>
G02 X644.0000 Y220.0000 I-1.2876 J1.5369 F#<xy_feed>
G01 X563.8257 Y220.0076 F#<xy_feed>
G02 X562.5860 Y220.5860 I0.1724 J1.9873 F#<xy_feed>
G01 X552.4681 Y230.7146 F#<xy_feed>
G02 X552.0000 Y232.0000 I1.5369 J1.2876 F#<xy_feed>
G00 Z-25.0000
X578.0780 Y274.0060
Z-3.5000
G01 Z-1.5000 F#<z_feed>
X576.0190 Y273.0260 F#<xy_feed>
G02 X604.0000 Y237.7450 I-47.0199 J-66.0272 F#<xy_feed>
X631.9810 Y273.0260 I74.9934 J-30.7403
G03 X576.0361 Y273.4166 I-27.9810 J-1.0260
G01 X576.0190 Y273.0260 F#<xy_feed>
(Part: gcode_test Duplicate 8)
(Operation: No Offset, 1, T1: Plasma Mild Steel 2mm, 1.5 mm kerf)
G00 Z-25.0000
X850.0000 Y382.0000
Z-3.5000
G01 Z-1.5000 F#<z_feed>
X852.0000 F#<xy_feed>
G03 X852.0000 Y382.0000 I-27.9998 J0.0000 F#<xy_feed>
G00 Z-25.0000
X770.0000 Y332.0000
Z-3.5000
G01 Z-1.5000 F#<z_feed>
X772.0000 F#<xy_feed>
X772.0076 Y422.1743
G02 X772.5860 Y423.4140 I1.9873 J-0.1724 F#<xy_feed>
G01 X782.7146 Y433.5319 F#<xy_feed>
G02 X784.0000 Y434.0000 I1.2876 J-1.5369 F#<xy_feed>
G01 X864.1743 Y433.9924 F#<xy_feed>
G02 X865.4140 Y433.4140 I-0.1724 J-1.9873 F#<xy_feed>
G01 X875.5319 Y423.2854 F#<xy_feed>
G02 X876.0000 Y422.0000 I-1.5369 J-1.2876 F#<xy_feed>
G01 X875.9924 Y331.8257 F#<xy_feed>
G02 X874.0000 Y330.0000 I-1.9925 J0.1744 F#<xy_feed>
G01 X773.8257 Y330.0076 F#<xy_feed>
G02 X772.0000 Y332.0000 I0.1744 J1.9925 F#<xy_feed>
G00 Z-25.0000
X740.0000 Y382.0000
Z-3.5000
G01 Z-1.5000 F#<z_feed>
X742.0000 F#<xy_feed>
G03 X742.0000 Y382.0000 I-27.9998 J0.0000 F#<xy_feed>
G00 Z-25.0000
X660.0000 Y332.0000
Z-3.5000
G01 Z-1.5000 F#<z_feed>
X662.0000 F#<xy_feed>
X662.0076 Y422.1743
G02 X662.5860 Y423.4140 I1.9873 J-0.1724 F#<xy_feed>
G01 X672.7146 Y433.5319 F#<xy_feed>
G02 X674.0000 Y434.0000 I1.2876 J-1.5369 F#<xy_feed>
G01 X754.1743 Y433.9924 F#<xy_feed>
G02 X755.4140 Y433.4140 I-0.1724 J-1.9873 F#<xy_feed>
G01 X765.5319 Y423.2854 F#<xy_feed>
G02 X766.0000 Y422.0000 I-1.5369 J-1.2876 F#<xy_feed>
G01 X765.9924 Y331.8257 F#<xy_feed>
G02 X764.0000 Y330.0000 I-1.9925 J0.1744 F#<xy_feed>
G01 X663.8257 Y330.0076 F#<xy_feed>
G02 X662.0000 Y332.0000 I0.1744 J1.9925 F#<xy_feed>
G00 Z-25.0000
X704.0000 Y286.0000
Z-3.5000
G01 Z-1.5000 F#<z_feed>
Y284.0000 F#<xy_feed>
X724.1743 Y283.9924
G02 X726.0000 Y282.0000 I-0.1744 J-1.9925 F#<xy_feed>
G01 X725.9924 Y261.8257 F#<xy_feed>
G02 X724.0000 Y260.0000 I-1.9925 J0.1744 F#<xy_feed>
G01 X703.8257 Y260.0076 F#<xy_feed>
G02 X702.0000 Y262.0000 I0.1744 J1.9925 F#<xy_feed>
G01 X702.0076 Y282.1743 F#<xy_feed>
G02 X704.0000 Y284.0000 I1.9925 J-0.1744 F#<xy_feed>
G00 Z-25.0000
X688.0000 Y246.0000
Z-3.5000
G01 Z-1.5000 F#<z_feed>
X686.0000 Y244.0000 F#<xy_feed>
X742.0000
Y300.0000
X686.0000
Y244.0000
G00 Z-25.0000
X660.0000 Y222.0000
Z-3.5000
G01 Z-1.5000 F#<z_feed>
X662.0000 F#<xy_feed>
X662.0076 Y322.1743
G02 X664.0000 Y324.0000 I1.9925 J-0.1744 F#<xy_feed>
G01 X764.1743 Y323.9924 F#<xy_feed>
G02 X766.0000 Y322.0000 I-0.1744 J-1.9925 F#<xy_feed>
G01 X765.9924 Y221.8257 F#<xy_feed>
G02 X764.0000 Y220.0000 I-1.9925 J0.1744 F#<xy_feed>
G01 X663.8257 Y220.0076 F#<xy_feed>
G02 X662.0000 Y222.0000 I0.1744 J1.9925 F#<xy_feed>
G00 Z-25.0000
X770.0000 Y232.0000
Z-3.5000
G01 Z-1.5000 F#<z_feed>
X772.0000 F#<xy_feed>
X772.0076 Y312.1743
G02 X772.5860 Y313.4140 I1.9873 J-0.1724 F#<xy_feed>
G01 X782.6636 Y323.4876 F#<xy_feed>
G02 X784.9410 Y323.7650 I1.3373 J-1.4916 F#<xy_feed>
G03 X861.5873 Y322.9989 I39.0590 J73.2351
G01 X863.1547 Y323.8128 F#<xy_feed>
G02 X865.4140 Y323.4140 I0.8456 J-1.8085 F#<xy_feed>
G01 X875.5319 Y313.2854 F#<xy_feed>
G02 X876.0000 Y312.0000 I-1.5369 J-1.2876 F#<xy_feed>
G01 X875.9924 Y231.8257 F#<xy_feed>
G02 X875.4140 Y230.5860 I-1.9873 J0.1724 F#<xy_feed>
G01 X865.2854 Y220.4681 F#<xy_feed>
G02 X864.0000 Y220.0000 I-1.2876 J1.5369 F#<xy_feed>
G01 X783.8257 Y220.0076 F#<xy_feed>
G02 X782.5860 Y220.5860 I0.1724 J1.9873 F#<xy_feed>
G01 X772.4681 Y230.7146 F#<xy_feed>
G02 X772.0000 Y232.0000 I1.5369 J1.2876 F#<xy_feed>
G00 Z-25.0000
X798.0780 Y274.0060
Z-3.5000
G01 Z-1.5000 F#<z_feed>
X796.0190 Y273.0260 F#<xy_feed>
G02 X824.0000 Y237.7450 I-47.0199 J-66.0272 F#<xy_feed>
X851.9810 Y273.0260 I74.9934 J-30.7403
G03 X796.0361 Y273.4166 I-27.9810 J-1.0260
G01 X796.0190 Y273.0260 F#<xy_feed>
(Part: gcode_test Duplicate 9)
(Operation: No Offset, 1, T1: Plasma Mild Steel 2mm, 1.5 mm kerf)
G00 Z-25.0000
X1070.0000 Y382.0000
Z-3.5000
G01 Z-1.5000 F#<z_feed>
X1072.0000 F#<xy_feed>
G03 X1072.0000 Y382.0000 I-27.9998 J0.0000 F#<xy_feed>
G00 Z-25.0000
X990.0000 Y332.0000
Z-3.5000
G01 Z-1.5000 F#<z_feed>
X992.0000 F#<xy_feed>
X992.0076 Y422.1743
G02 X992.5860 Y423.4140 I1.9873 J-0.1724 F#<xy_feed>
G01 X1002.7146 Y433.5319 F#<xy_feed>
G02 X1004.0000 Y434.0000 I1.2876 J-1.5369 F#<xy_feed>
G01 X1084.1743 Y433.9924 F#<xy_feed>
G02 X1085.4140 Y433.4140 I-0.1724 J-1.9873 F#<xy_feed>
G01 X1095.5319 Y423.2854 F#<xy_feed>
G02 X1096.0000 Y422.0000 I-1.5369 J-1.2876 F#<xy_feed>
G01 X1095.9924 Y331.8257 F#<xy_feed>
G02 X1094.0000 Y330.0000 I-1.9925 J0.1744 F#<xy_feed>
G01 X993.8257 Y330.0076 F#<xy_feed>
G02 X992.0000 Y332.0000 I0.1744 J1.9925 F#<xy_feed>
G00 Z-25.0000
X960.0000 Y382.0000
Z-3.5000
G01 Z-1.5000 F#<z_feed>
X962.0000 F#<xy_feed>
G03 X962.0000 Y382.0000 I-27.9998 J0.0000 F#<xy_feed>
G00 Z-25.0000
X880.0000 Y332.0000
Z-3.5000
G01 Z-1.5000 F#<z_feed>
X882.0000 F#<xy_feed>
X882.0076 Y422.1743
G02 X882.5860 Y423.4140 I1.9873 J-0.1724 F#<xy_feed>
G01 X892.7146 Y433.5319 F#<xy_feed>
G02 X894.0000 Y434.0000 I1.2876 J-1.5369 F#<xy_feed>
G01 X974.1743 Y433.9924 F#<xy_feed>
G02 X975.4140 Y433.4140 I-0.1724 J-1.9873 F#<xy_feed>
G01 X985.5319 Y423.2854 F#<xy_feed>
G02 X986.0000 Y422.0000 I-1.5369 J-1.2876 F#<xy_feed>
G01 X985.9924 Y331.8257 F#<xy_feed>
G02 X984.0000 Y330.0000 I-1.9925 J0.1744 F#<xy_feed>
G01 X883.8257 Y330.0076 F#<xy_feed>
G02 X882.0000 Y332.0000 I0.1744 J1.9925 F#<xy_feed>
G00 Z-25.0000
X924.0000 Y286.0000
Z-3.5000
G01 Z-1.5000 F#<z_feed>
Y284.0000 F#<xy_feed>
X944.1743 Y283.9924
G02 X946.0000 Y282.0000 I-0.1744 J-1.9925 F#<xy_feed>
G01 X945.9924 Y261.8257 F#<xy_feed>
G02 X944.0000 Y260.0000 I-1.9925 J0.1744 F#<xy_feed>
G01 X923.8257 Y260.0076 F#<xy_feed>
G02 X922.0000 Y262.0000 I0.1744 J1.9925 F#<xy_feed>
G01 X922.0076 Y282.1743 F#<xy_feed>
G02 X924.0000 Y284.0000 I1.9925 J-0.1744 F#<xy_feed>
G00 Z-25.0000
X908.0000 Y246.0000
Z-3.5000
G01 Z-1.5000 F#<z_feed>
X906.0000 Y244.0000 F#<xy_feed>
X962.0000
Y300.0000
X906.0000
Y244.0000
G00 Z-25.0000
X880.0000 Y222.0000
Z-3.5000
G01 Z-1.5000 F#<z_feed>
X882.0000 F#<xy_feed>
X882.0076 Y322.1743
G02 X884.0000 Y324.0000 I1.9925 J-0.1744 F#<xy_feed>
G01 X984.1743 Y323.9924 F#<xy_feed>
G02 X986.0000 Y322.0000 I-0.1744 J-1.9925 F#<xy_feed>
G01 X985.9924 Y221.8257 F#<xy_feed>
G02 X984.0000 Y220.0000 I-1.9925 J0.1744 F#<xy_feed>
G01 X883.8257 Y220.0076 F#<xy_feed>
G02 X882.0000 Y222.0000 I0.1744 J1.9925 F#<xy_feed>
G00 Z-25.0000
X990.0000 Y232.0000
Z-3.5000
G01 Z-1.5000 F#<z_feed>
X992.0000 F#<xy_feed>
X992.0076 Y312.1743
G02 X992.5860 Y313.4140 I1.9873 J-0.1724 F#<xy_feed>
G01 X1002.6636 Y323.4876 F#<xy_feed>
G02 X1004.9410 Y323.7650 I1.3373 J-1.4916 F#<xy_feed>
G03 X1081.5873 Y322.9989 I39.0590 J73.2351
G01 X1083.1547 Y323.8128 F#<xy_feed>
G02 X1085.4140 Y323.4140 I0.8456 J-1.8085 F#<xy_feed>
G01 X1095.5319 Y313.2854 F#<xy_feed>
G02 X1096.0000 Y312.0000 I-1.5369 J-1.2876 F#<xy_feed>
G01 X1095.9924 Y231.8257 F#<xy_feed>
G02 X1095.4140 Y230.5860 I-1.9873 J0.1724 F#<xy_feed>
G01 X1085.2854 Y220.4681 F#<xy_feed>
G02 X1084.0000 Y220.0000 I-1.2876 J1.5369 F#<xy_feed>
G01 X1003.8257 Y220.0076 F#<xy_feed>
G02 X1002.5860 Y220.5860 I0.1724 J1.9873 F#<xy_feed>
G01 X992.4681 Y230.7146 F#<xy_feed>
G02 X992.0000 Y232.0000 I1.5369 J1.2876 F#<xy_feed>
G00 Z-25.0000
X1018.0780 Y274.0060
Z-3.5000
G01 Z-1.5000 F#<z_feed>
X1016.0190 Y273.0260 F#<xy_feed>
G02 X1044.0000 Y237.7450 I-47.0199 J-66.0272 F#<xy_feed>
X1071.9810 Y273.0260 I74.9934 J-30.7403
G03 X1016.0361 Y273.4166 I-27.9810 J-1.0260
G01 X1016.0190 Y273.0260 F#<xy_feed>
(Part: Part of gcode_test)
(Operation: No Offset, 1, T1: Plasma Mild Steel 2mm, 1.5 mm kerf)
G00 Z-25.0000
X138.0780 Y494.0060
Z-3.5000
G01 Z-1.5000 F#<z_feed>
X136.0190 Y493.0260 F#<xy_feed>
G02 X164.0000 Y457.7450 I-47.0199 J-66.0272 F#<xy_feed>
X191.9810 Y493.0260 I74.9934 J-30.7403
G03 X136.0361 Y493.4166 I-27.9810 J-1.0260
G01 X136.0190 Y493.0260 F#<xy_feed>
G00 Z-25.0000
X110.0000 Y452.0000
Z-3.5000
G01 Z-1.5000 F#<z_feed>
X112.0000 F#<xy_feed>
X112.0076 Y532.1743
G02 X112.5860 Y533.4140 I1.9873 J-0.1724 F#<xy_feed>
G01 X122.6636 Y543.4876 F#<xy_feed>
G02 X124.9410 Y543.7650 I1.3373 J-1.4916 F#<xy_feed>
G03 X201.5873 Y542.9989 I39.0590 J73.2351
G01 X203.1547 Y543.8128 F#<xy_feed>
G02 X205.4140 Y543.4140 I0.8456 J-1.8085 F#<xy_feed>
G01 X215.5319 Y533.2854 F#<xy_feed>
G02 X216.0000 Y532.0000 I-1.5369 J-1.2876 F#<xy_feed>
G01 X215.9924 Y451.8257 F#<xy_feed>
G02 X215.4140 Y450.5860 I-1.9873 J0.1724 F#<xy_feed>
G01 X205.2854 Y440.4681 F#<xy_feed>
G02 X204.0000 Y440.0000 I-1.2876 J1.5369 F#<xy_feed>
G01 X123.8257 Y440.0076 F#<xy_feed>
G02 X122.5860 Y440.5860 I0.1724 J1.9873 F#<xy_feed>
G01 X112.4681 Y450.7146 F#<xy_feed>
G02 X112.0000 Y452.0000 I1.5369 J1.2876 F#<xy_feed>
G00 Z-25.0000
X28.0000 Y466.0000
Z-3.5000
G01 Z-1.5000 F#<z_feed>
X26.0000 Y464.0000 F#<xy_feed>
X82.0000
Y520.0000
X26.0000
Y464.0000
G00 Z-25.0000
X0.0000 Y442.0000
Z-3.5000
G01 Z-1.5000 F#<z_feed>
X2.0000 F#<xy_feed>
X2.0076 Y542.1743
G02 X4.0000 Y544.0000 I1.9925 J-0.1744 F#<xy_feed>
G01 X104.1743 Y543.9924 F#<xy_feed>
G02 X106.0000 Y542.0000 I-0.1744 J-1.9925 F#<xy_feed>
G01 X105.9924 Y441.8257 F#<xy_feed>
G02 X104.0000 Y440.0000 I-1.9925 J0.1744 F#<xy_feed>
G01 X3.8257 Y440.0076 F#<xy_feed>
G02 X2.0000 Y442.0000 I0.1744 J1.9925 F#<xy_feed>
G00 Z-25.0000
X44.0000 Y506.0000
Z-3.5000
G01 Z-1.5000 F#<z_feed>
Y504.0000 F#<xy_feed>
X64.1743 Y503.9924
G02 X66.0000 Y502.0000 I-0.1744 J-1.9925 F#<xy_feed>
G01 X65.9924 Y481.8257 F#<xy_feed>
G02 X64.0000 Y480.0000 I-1.9925 J0.1744 F#<xy_feed>
G01 X43.8257 Y480.0076 F#<xy_feed>
G02 X42.0000 Y482.0000 I0.1744 J1.9925 F#<xy_feed>
G01 X42.0076 Y502.1743 F#<xy_feed>
(Part: Part of gcode_test Duplicate 1)
G02 X44.0000 Y504.0000 I1.9925 J-0.1744 F#<xy_feed>
(Operation: No Offset, 1, T1: Plasma Mild Steel 2mm, 1.5 mm kerf)
G00 Z-25.0000
X358.0780 Y494.0060
Z-3.5000
G01 Z-1.5000 F#<z_feed>
X356.0190 Y493.0260 F#<xy_feed>
G02 X384.0000 Y457.7450 I-47.0199 J-66.0272 F#<xy_feed>
X411.9810 Y493.0260 I74.9934 J-30.7403
G03 X356.0361 Y493.4166 I-27.9810 J-1.0260
G01 X356.0190 Y493.0260 F#<xy_feed>
G00 Z-25.0000
X330.0000 Y452.0000
Z-3.5000
G01 Z-1.5000 F#<z_feed>
X332.0000 F#<xy_feed>
X332.0076 Y532.1743
G02 X332.5860 Y533.4140 I1.9873 J-0.1724 F#<xy_feed>
G01 X342.6636 Y543.4876 F#<xy_feed>
G02 X344.9410 Y543.7650 I1.3373 J-1.4916 F#<xy_feed>
G03 X421.5873 Y542.9989 I39.0590 J73.2351
G01 X423.1547 Y543.8128 F#<xy_feed>
G02 X425.4140 Y543.4140 I0.8456 J-1.8085 F#<xy_feed>
G01 X435.5319 Y533.2854 F#<xy_feed>
G02 X436.0000 Y532.0000 I-1.5369 J-1.2876 F#<xy_feed>
G01 X435.9924 Y451.8257 F#<xy_feed>
G02 X435.4140 Y450.5860 I-1.9873 J0.1724 F#<xy_feed>
G01 X425.2854 Y440.4681 F#<xy_feed>
G02 X424.0000 Y440.0000 I-1.2876 J1.5369 F#<xy_feed>
G01 X343.8257 Y440.0076 F#<xy_feed>
G02 X342.5860 Y440.5860 I0.1724 J1.9873 F#<xy_feed>
G01 X332.4681 Y450.7146 F#<xy_feed>
G02 X332.0000 Y452.0000 I1.5369 J1.2876 F#<xy_feed>
G00 Z-25.0000
X248.0000 Y466.0000
Z-3.5000
G01 Z-1.5000 F#<z_feed>
X246.0000 Y464.0000 F#<xy_feed>
X302.0000
Y520.0000
X246.0000
Y464.0000
G00 Z-25.0000
X220.0000 Y442.0000
Z-3.5000
G01 Z-1.5000 F#<z_feed>
X222.0000 F#<xy_feed>
X222.0076 Y542.1743
G02 X224.0000 Y544.0000 I1.9925 J-0.1744 F#<xy_feed>
G01 X324.1743 Y543.9924 F#<xy_feed>
G02 X326.0000 Y542.0000 I-0.1744 J-1.9925 F#<xy_feed>
G01 X325.9924 Y441.8257 F#<xy_feed>
G02 X324.0000 Y440.0000 I-1.9925 J0.1744 F#<xy_feed>
G01 X223.8257 Y440.0076 F#<xy_feed>
G02 X222.0000 Y442.0000 I0.1744 J1.9925 F#<xy_feed>
G00 Z-25.0000
X264.0000 Y506.0000
Z-3.5000
G01 Z-1.5000 F#<z_feed>
Y504.0000 F#<xy_feed>
X284.1743 Y503.9924
G02 X286.0000 Y502.0000 I-0.1744 J-1.9925 F#<xy_feed>
G01 X285.9924 Y481.8257 F#<xy_feed>
G02 X284.0000 Y480.0000 I-1.9925 J0.1744 F#<xy_feed>
G01 X263.8257 Y480.0076 F#<xy_feed>
G02 X262.0000 Y482.0000 I0.1744 J1.9925 F#<xy_feed>
G01 X262.0076 Y502.1743 F#<xy_feed>
(Part: Part of gcode_test Duplicate 2)
G02 X264.0000 Y504.0000 I1.9925 J-0.1744 F#<xy_feed>
(Operation: No Offset, 1, T1: Plasma Mild Steel 2mm, 1.5 mm kerf)
G00 Z-25.0000
X578.0780 Y494.0060
Z-3.5000
G01 Z-1.5000 F#<z_feed>
X576.0190 Y493.0260 F#<xy_feed>
G02 X604.0000 Y457.7450 I-47.0199 J-66.0272 F#<xy_feed>
X631.9810 Y493.0260 I74.9934 J-30.7403
G03 X576.0361 Y493.4166 I-27.9810 J-1.0260
G01 X576.0190 Y493.0260 F#<xy_feed>
G00 Z-25.0000
X550.0000 Y452.0000
Z-3.5000
G01 Z-1.5000 F#<z_feed>
X552.0000 F#<xy_feed>
X552.0076 Y532.1743
G02 X552.5860 Y533.4140 I1.9873 J-0.1724 F#<xy_feed>
G01 X562.6636 Y543.4876 F#<xy_feed>
G02 X564.9410 Y543.7650 I1.3373 J-1.4916 F#<xy_feed>
G03 X641.5873 Y542.9989 I39.0590 J73.2351
G01 X643.1547 Y543.8128 F#<xy_feed>
G02 X645.4140 Y543.4140 I0.8456 J-1.8085 F#<xy_feed>
G01 X655.5319 Y533.2854 F#<xy_feed>
G02 X656.0000 Y532.0000 I-1.5369 J-1.2876 F#<xy_feed>
G01 X655.9924 Y451.8257 F#<xy_feed>
G02 X655.4140 Y450.5860 I-1.9873 J0.1724 F#<xy_feed>
G01 X645.2854 Y440.4681 F#<xy_feed>
G02 X644.0000 Y440.0000 I-1.2876 J1.5369 F#<xy_feed>
G01 X563.8257 Y440.0076 F#<xy_feed>
G02 X562.5860 Y440.5860 I0.1724 J1.9873 F#<xy_feed>
G01 X552.4681 Y450.7146 F#<xy_feed>
G02 X552.0000 Y452.0000 I1.5369 J1.2876 F#<xy_feed>
G00 Z-25.0000
X468.0000 Y466.0000
Z-3.5000
G01 Z-1.5000 F#<z_feed>
X466.0000 Y464.0000 F#<xy_feed>
X522.0000
Y520.0000
X466.0000
Y464.0000
G00 Z-25.0000
X440.0000 Y442.0000
Z-3.5000
G01 Z-1.5000 F#<z_feed>
X442.0000 F#<xy_feed>
X442.0076 Y542.1743
G02 X444.0000 Y544.0000 I1.9925 J-0.1744 F#<xy_feed>
G01 X544.1743 Y543.9924 F#<xy_feed>
G02 X546.0000 Y542.0000 I-0.1744 J-1.9925 F#<xy_feed>
G01 X545.9924 Y441.8257 F#<xy_feed>
G02 X544.0000 Y440.0000 I-1.9925 J0.1744 F#<xy_feed>
G01 X443.8257 Y440.0076 F#<xy_feed>
G02 X442.0000 Y442.0000 I0.1744 J1.9925 F#<xy_feed>
G00 Z-25.0000
X484.0000 Y506.0000
Z-3.5000
G01 Z-1.5000 F#<z_feed>
Y504.0000 F#<xy_feed>
X504.1743 Y503.9924
G02 X506.0000 Y502.0000 I-0.1744 J-1.9925 F#<xy_feed>
G01 X505.9924 Y481.8257 F#<xy_feed>
G02 X504.0000 Y480.0000 I-1.9925 J0.1744 F#<xy_feed>
G01 X483.8257 Y480.0076 F#<xy_feed>
G02 X482.0000 Y482.0000 I0.1744 J1.9925 F#<xy_feed>
G01 X482.0076 Y502.1743 F#<xy_feed>
(Part: Part of gcode_test Duplicate 3)
G02 X484.0000 Y504.0000 I1.9925 J-0.1744 F#<xy_feed>
(Operation: No Offset, 1, T1: Plasma Mild Steel 2mm, 1.5 mm kerf)
G00 Z-25.0000
X798.0780 Y494.0060
Z-3.5000
G01 Z-1.5000 F#<z_feed>
X796.0190 Y493.0260 F#<xy_feed>
G02 X824.0000 Y457.7450 I-47.0199 J-66.0272 F#<xy_feed>
X851.9810 Y493.0260 I74.9934 J-30.7403
G03 X796.0361 Y493.4166 I-27.9810 J-1.0260
G01 X796.0190 Y493.0260 F#<xy_feed>
G00 Z-25.0000
X770.0000 Y452.0000
Z-3.5000
G01 Z-1.5000 F#<z_feed>
X772.0000 F#<xy_feed>
X772.0076 Y532.1743
G02 X772.5860 Y533.4140 I1.9873 J-0.1724 F#<xy_feed>
G01 X782.6636 Y543.4876 F#<xy_feed>
G02 X784.9410 Y543.7650 I1.3373 J-1.4916 F#<xy_feed>
G03 X861.5873 Y542.9989 I39.0590 J73.2351
G01 X863.1547 Y543.8128 F#<xy_feed>
G02 X865.4140 Y543.4140 I0.8456 J-1.8085 F#<xy_feed>
G01 X875.5319 Y533.2854 F#<xy_feed>
G02 X876.0000 Y532.0000 I-1.5369 J-1.2876 F#<xy_feed>
G01 X875.9924 Y451.8257 F#<xy_feed>
G02 X875.4140 Y450.5860 I-1.9873 J0.1724 F#<xy_feed>
G01 X865.2854 Y440.4681 F#<xy_feed>
G02 X864.0000 Y440.0000 I-1.2876 J1.5369 F#<xy_feed>
G01 X783.8257 Y440.0076 F#<xy_feed>
G02 X782.5860 Y440.5860 I0.1724 J1.9873 F#<xy_feed>
G01 X772.4681 Y450.7146 F#<xy_feed>
G02 X772.0000 Y452.0000 I1.5369 J1.2876 F#<xy_feed>
G00 Z-25.0000
X688.0000 Y466.0000
Z-3.5000
G01 Z-1.5000 F#<z_feed>
X686.0000 Y464.0000 F#<xy_feed>
X742.0000
Y520.0000
X686.0000
Y464.0000
G00 Z-25.0000
X660.0000 Y442.0000
Z-3.5000
G01 Z-1.5000 F#<z_feed>
X662.0000 F#<xy_feed>
X662.0076 Y542.1743
G02 X664.0000 Y544.0000 I1.9925 J-0.1744 F#<xy_feed>
G01 X764.1743 Y543.9924 F#<xy_feed>
G02 X766.0000 Y542.0000 I-0.1744 J-1.9925 F#<xy_feed>
G01 X765.9924 Y441.8257 F#<xy_feed>
G02 X764.0000 Y440.0000 I-1.9925 J0.1744 F#<xy_feed>
G01 X663.8257 Y440.0076 F#<xy_feed>
G02 X662.0000 Y442.0000 I0.1744 J1.9925 F#<xy_feed>
G00 Z-25.0000
X704.0000 Y506.0000
Z-3.5000
G01 Z-1.5000 F#<z_feed>
Y504.0000 F#<xy_feed>
X724.1743 Y503.9924
G02 X726.0000 Y502.0000 I-0.1744 J-1.9925 F#<xy_feed>
G01 X725.9924 Y481.8257 F#<xy_feed>
G02 X724.0000 Y480.0000 I-1.9925 J0.1744 F#<xy_feed>
G01 X703.8257 Y480.0076 F#<xy_feed>
G02 X702.0000 Y482.0000 I0.1744 J1.9925 F#<xy_feed>
G01 X702.0076 Y502.1743 F#<xy_feed>
(Part: Part of gcode_test Duplicate 4)
G02 X704.0000 Y504.0000 I1.9925 J-0.1744 F#<xy_feed>
(Operation: No Offset, 1, T1: Plasma Mild Steel 2mm, 1.5 mm kerf)
G00 Z-25.0000
X1018.0780 Y494.0060
Z-3.5000
G01 Z-1.5000 F#<z_feed>
X1016.0190 Y493.0260 F#<xy_feed>
G02 X1044.0000 Y457.7450 I-47.0199 J-66.0272 F#<xy_feed>
X1071.9810 Y493.0260 I74.9934 J-30.7403
G03 X1016.0361 Y493.4166 I-27.9810 J-1.0260
G01 X1016.0190 Y493.0260 F#<xy_feed>
G00 Z-25.0000
X990.0000 Y452.0000
Z-3.5000
G01 Z-1.5000 F#<z_feed>
X992.0000 F#<xy_feed>
X992.0076 Y532.1743
G02 X992.5860 Y533.4140 I1.9873 J-0.1724 F#<xy_feed>
G01 X1002.6636 Y543.4876 F#<xy_feed>
G02 X1004.9410 Y543.7650 I1.3373 J-1.4916 F#<xy_feed>
G03 X1081.5873 Y542.9989 I39.0590 J73.2351
G01 X1083.1547 Y543.8128 F#<xy_feed>
G02 X1085.4140 Y543.4140 I0.8456 J-1.8085 F#<xy_feed>
G01 X1095.5319 Y533.2854 F#<xy_feed>
G02 X1096.0000 Y532.0000 I-1.5369 J-1.2876 F#<xy_feed>
G01 X1095.9924 Y451.8257 F#<xy_feed>
G02 X1095.4140 Y450.5860 I-1.9873 J0.1724 F#<xy_feed>
G01 X1085.2854 Y440.4681 F#<xy_feed>
G02 X1084.0000 Y440.0000 I-1.2876 J1.5369 F#<xy_feed>
G01 X1003.8257 Y440.0076 F#<xy_feed>
G02 X1002.5860 Y440.5860 I0.1724 J1.9873 F#<xy_feed>
G01 X992.4681 Y450.7146 F#<xy_feed>
G02 X992.0000 Y452.0000 I1.5369 J1.2876 F#<xy_feed>
G00 Z-25.0000
X908.0000 Y466.0000
Z-3.5000
G01 Z-1.5000 F#<z_feed>
X906.0000 Y464.0000 F#<xy_feed>
X962.0000
Y520.0000
X906.0000
Y464.0000
G00 Z-25.0000
X880.0000 Y442.0000
Z-3.5000
G01 Z-1.5000 F#<z_feed>
X882.0000 F#<xy_feed>
X882.0076 Y542.1743
G02 X884.0000 Y544.0000 I1.9925 J-0.1744 F#<xy_feed>
G01 X984.1743 Y543.9924 F#<xy_feed>
G02 X986.0000 Y542.0000 I-0.1744 J-1.9925 F#<xy_feed>
G01 X985.9924 Y441.8257 F#<xy_feed>
G02 X984.0000 Y440.0000 I-1.9925 J0.1744 F#<xy_feed>
G01 X883.8257 Y440.0076 F#<xy_feed>
G02 X882.0000 Y442.0000 I0.1744 J1.9925 F#<xy_feed>
G00 Z-25.0000
X924.0000 Y506.0000
Z-3.5000
G01 Z-1.5000 F#<z_feed>
Y504.0000 F#<xy_feed>
X944.1743 Y503.9924
G02 X946.0000 Y502.0000 I-0.1744 J-1.9925 F#<xy_feed>
G01 X945.9924 Y481.8257 F#<xy_feed>
G02 X944.0000 Y480.0000 I-1.9925 J0.1744 F#<xy_feed>
G01 X923.8257 Y480.0076 F#<xy_feed>
G02 X922.0000 Y482.0000 I0.1744 J1.9925 F#<xy_feed>
G01 X922.0076 Y502.1743 F#<xy_feed>
(Part: Part of gcode_test[1])
G02 X924.0000 Y504.0000 I1.9925 J-0.1744 F#<xy_feed>
(Operation: No Offset, 1, T1: Plasma Mild Steel 2mm, 1.5 mm kerf)
G00 Z-25.0000
X1185.0000 Y162.0000
Z-3.5000
G01 Z-1.5000 F#<z_feed>
X1187.0000 F#<xy_feed>
G03 X1187.0000 Y162.0000 I-27.9998 J0.0000 F#<xy_feed>
G00 Z-25.0000
X1105.0000 Y112.0000
Z-3.5000
G01 Z-1.5000 F#<z_feed>
X1107.0000 F#<xy_feed>
X1107.0076 Y202.1743
G02 X1107.5860 Y203.4140 I1.9873 J-0.1724 F#<xy_feed>
G01 X1117.7146 Y213.5319 F#<xy_feed>
G02 X1119.0000 Y214.0000 I1.2876 J-1.5369 F#<xy_feed>
G01 X1199.1743 Y213.9924 F#<xy_feed>
G02 X1200.4140 Y213.4140 I-0.1724 J-1.9873 F#<xy_feed>
G01 X1210.5319 Y203.2854 F#<xy_feed>
G02 X1211.0000 Y202.0000 I-1.5369 J-1.2876 F#<xy_feed>
G01 X1210.9924 Y111.8257 F#<xy_feed>
G02 X1209.0000 Y110.0000 I-1.9925 J0.1744 F#<xy_feed>
G01 X1108.8257 Y110.0076 F#<xy_feed>
G02 X1107.0000 Y112.0000 I0.1744 J1.9925 F#<xy_feed>
G00 Z-25.0000
X1149.0000 Y66.0000
Z-3.5000
G01 Z-1.5000 F#<z_feed>
Y64.0000 F#<xy_feed>
X1169.1743 Y63.9924
G02 X1171.0000 Y62.0000 I-0.1744 J-1.9925 F#<xy_feed>
G01 X1170.9924 Y41.8257 F#<xy_feed>
G02 X1169.0000 Y40.0000 I-1.9925 J0.1744 F#<xy_feed>
G01 X1148.8257 Y40.0076 F#<xy_feed>
G02 X1147.0000 Y42.0000 I0.1744 J1.9925 F#<xy_feed>
G01 X1147.0076 Y62.1743 F#<xy_feed>
G02 X1149.0000 Y64.0000 I1.9925 J-0.1744 F#<xy_feed>
G00 Z-25.0000
X1133.0000 Y26.0000
Z-3.5000
G01 Z-1.5000 F#<z_feed>
X1131.0000 Y24.0000 F#<xy_feed>
X1187.0000
Y80.0000
X1131.0000
Y24.0000
G00 Z-25.0000
X1105.0000 Y2.0000
Z-3.5000
G01 Z-1.5000 F#<z_feed>
X1107.0000 F#<xy_feed>
X1107.0076 Y102.1743
G02 X1109.0000 Y104.0000 I1.9925 J-0.1744 F#<xy_feed>
G01 X1209.1743 Y103.9924 F#<xy_feed>
G02 X1211.0000 Y102.0000 I-0.1744 J-1.9925 F#<xy_feed>
G01 X1210.9924 Y1.8257 F#<xy_feed>
G02 X1209.0000 Y0.0000 I-1.9925 J0.1744 F#<xy_feed>
G01 X1108.8257 Y0.0076 F#<xy_feed>
(Part: Part of gcode_test[1] Duplicate 1)
G02 X1107.0000 Y2.0000 I0.1744 J1.9925 F#<xy_feed>
(Operation: No Offset, 1, T1: Plasma Mild Steel 2mm, 1.5 mm kerf)
G00 Z-25.0000
X1185.0000 Y382.0000
Z-3.5000
G01 Z-1.5000 F#<z_feed>
X1187.0000 F#<xy_feed>
G03 X1187.0000 Y382.0000 I-27.9998 J0.0000 F#<xy_feed>
G00 Z-25.0000
X1105.0000 Y332.0000
Z-3.5000
G01 Z-1.5000 F#<z_feed>
X1107.0000 F#<xy_feed>
X1107.0076 Y422.1743
G02 X1107.5860 Y423.4140 I1.9873 J-0.1724 F#<xy_feed>
G01 X1117.7146 Y433.5319 F#<xy_feed>
G02 X1119.0000 Y434.0000 I1.2876 J-1.5369 F#<xy_feed>
G01 X1199.1743 Y433.9924 F#<xy_feed>
G02 X1200.4140 Y433.4140 I-0.1724 J-1.9873 F#<xy_feed>
G01 X1210.5319 Y423.2854 F#<xy_feed>
G02 X1211.0000 Y422.0000 I-1.5369 J-1.2876 F#<xy_feed>
G01 X1210.9924 Y331.8257 F#<xy_feed>
G02 X1209.0000 Y330.0000 I-1.9925 J0.1744 F#<xy_feed>
G01 X1108.8257 Y330.0076 F#<xy_feed>
G02 X1107.0000 Y332.0000 I0.1744 J1.9925 F#<xy_feed>
G00 Z-25.0000
X1149.0000 Y286.0000
Z-3.5000
G01 Z-1.5000 F#<z_feed>
Y284.0000 F#<xy_feed>
X1169.1743 Y283.9924
G02 X1171.0000 Y282.0000 I-0.1744 J-1.9925 F#<xy_feed>
G01 X1170.9924 Y261.8257 F#<xy_feed>
G02 X1169.0000 Y260.0000 I-1.9925 J0.1744 F#<xy_feed>
G01 X1148.8257 Y260.0076 F#<xy_feed>
G02 X1147.0000 Y262.0000 I0.1744 J1.9925 F#<xy_feed>
G01 X1147.0076 Y282.1743 F#<xy_feed>
G02 X1149.0000 Y284.0000 I1.9925 J-0.1744 F#<xy_feed>
G00 Z-25.0000
X1133.0000 Y246.0000
Z-3.5000
G01 Z-1.5000 F#<z_feed>
X1131.0000 Y244.0000 F#<xy_feed>
X1187.0000
Y300.0000
X1131.0000
Y244.0000
G00 Z-25.0000
X1105.0000 Y222.0000
Z-3.5000
G01 Z-1.5000 F#<z_feed>
X1107.0000 F#<xy_feed>
X1107.0076 Y322.1743
G02 X1109.0000 Y324.0000 I1.9925 J-0.1744 F#<xy_feed>
G01 X1209.1743 Y323.9924 F#<xy_feed>
G02 X1211.0000 Y322.0000 I-0.1744 J-1.9925 F#<xy_feed>
G01 X1210.9924 Y221.8257 F#<xy_feed>
G02 X1209.0000 Y220.0000 I-1.9925 J0.1744 F#<xy_feed>
G01 X1108.8257 Y220.0076 F#<xy_feed>
G02 X1107.0000 Y222.0000 I0.1744 J1.9925 F#<xy_feed>
G00 Z-25.0000
M05 M30
