;     file name: square-tests.ngc
; date and time: Wed Nov 15 2023    6:54:00 PM
; postprocessor: LinuxCNC PlasmaC.scpost rev: 0.5
;
;begin pre-amble
 G21 (units: metric)
 G40 (cutter compensation: off)
 G90 (distance mode: absolute)
 M52 P1 (adaptive feed: on)
 M68 E3 Q0 (velocity 100%)
 G64 P0.254 Q0.025 (tracking tolerances: 0.254mm)
;end pre-amble
;
;begin material setup
 G43 H0 (apply tool offsets)
 (o=0,kw=1.5, ph=4, pd=0, ch=1.5, fr=7000, th=1, cv=99, pe=0, jh=0, jd=0)
 F7000
;end material setup
 G0 X474.7 Y380.607
 M3 $0 S1 (plasma start)
 M67 E3 Q100
 G3 X474.7 Y380.607 I10.607 J-10.607
 G3 X474.352 Y380.247 I10.607 J-10.607
 M5 $0 (plasma end)
 G0 X396.739 Y387.678
 M3 $0 S1 (plasma start)
 G3 X396.739 Y387.678 I17.678 J-17.678
 G3 X396.389 Y387.321 I17.678 J-17.678
 M5 $0 (plasma end)
 G0 X301.321 Y396.517
 M3 $0 S1 (plasma start)
 G3 X301.321 Y396.517 I26.517 J-26.517
 G3 X300.97 Y396.161 I26.517 J-26.517
 M5 $0 (plasma end)
 G0 X136.967 Y423.033
 M3 $0 S1 (plasma start)
 G3 X136.967 Y423.033 I53.033 J-53.033
 G3 X136.615 Y422.678 I53.033 J-53.033
 M5 $0 (plasma end)
 G0 X190 Y460
 M3 $0 S1 (plasma start)
 G1 X239 Y460
 G1 X240 Y461
 G1 X240 Y559
 G1 X239 Y560
 G1 X141 Y560
 G1 X140 Y559
 G1 X140 Y461
 G1 X141 Y460
 G1 X190 Y460
 G1 X190.5 Y460
 M5 $0 (plasma end)
 G0 X280 Y510
 M3 $0 S1 (plasma start)
 G1 X280 Y462
 G1 X282 Y460
 G1 X378 Y460
 G1 X380 Y462
 G1 X380 Y558
 G1 X378 Y560
 G1 X282 Y560
 G1 X280 Y558
 G1 X280 Y510
 G1 X280 Y509.5
 M5 $0 (plasma end)
 G0 X379.414 Y600.586
 M3 $0 S1 (plasma start)
 G3 X380 Y602 I-1.414 J1.414
 G1 X380 Y698
 G3 X378 Y700 I-2 J0
 G1 X282 Y700
 G3 X280 Y698 I-0 J-2
 G1 X280 Y602
 G3 X282 Y600 I2 J0
 G1 X378 Y600
 G3 X379.414 Y600.586 I-0 J2
 G3 X379.72 Y600.98 I-1.414 J1.414
 M5 $0 (plasma end)
 G0 X421.852 Y600.228
 M3 $0 S1 (plasma start)
 G3 X423 Y600 I1.148 J2.772
 G1 X517 Y600
 G3 X520 Y603 I0 J3
 G1 X520 Y697
 G3 X517 Y700 I-3 J0
 G1 X423 Y700
 G3 X420 Y697 I0 J-3
 G1 X420 Y603
 G3 X421.852 Y600.228 I3 J0
 G3 X422.328 Y600.076 I1.148 J2.772
 M5 $0 (plasma end)
 G0 X470 Y560
 M3 $0 S1 (plasma start)
 G1 X423 Y560
 G1 X420 Y557
 G1 X420 Y463
 G1 X423 Y460
 G1 X517 Y460
 G1 X520 Y463
 G1 X520 Y557
 G1 X517 Y560
 G1 X470 Y560
 G1 X469.5 Y560
 M5 $0 (plasma end)
 G0 X560 Y510
 M3 $0 S1 (plasma start)
 G1 X560 Y465
 G1 X565 Y460
 G1 X655 Y460
 G1 X660 Y465
 G1 X660 Y555
 G1 X655 Y560
 G1 X565 Y560
 G1 X560 Y555
 G1 X560 Y510
 G1 X560 Y509.5
 M5 $0 (plasma end)
 G0 X658.536 Y601.464
 M3 $0 S1 (plasma start)
 G3 X660 Y605 I-3.536 J3.536
 G1 X660 Y695
 G3 X655 Y700 I-5 J0
 G1 X565 Y700
 G3 X560 Y695 I0 J-5
 G1 X560 Y605
 G3 X565 Y600 I5 J0
 G1 X655 Y600
 G3 X658.536 Y601.464 I-0 J5
 G3 X658.871 Y601.835 I-3.536 J3.536
 M5 $0 (plasma end)
 G0 X795.061 Y600.609
 M3 $0 S1 (plasma start)
 G3 X800 Y608 I-3.061 J7.391
 G1 X800 Y692
 G3 X792 Y700 I-8 J0
 G1 X708 Y700
 G3 X700 Y692 I0 J-8
 G1 X700 Y608
 G3 X708 Y600 I8 J-0
 G1 X792 Y600
 G3 X795.061 Y600.609 I0 J8
 G3 X795.517 Y600.815 I-3.061 J7.391
 M5 $0 (plasma end)
 G0 X796 Y556
 M3 $0 S1 (plasma start)
 G1 X792 Y560
 G1 X708 Y560
 G1 X700 Y552
 G1 X700 Y468
 G1 X708 Y460
 G1 X792 Y460
 G1 X800 Y468
 G1 X800 Y552
 G1 X796 Y556
 G1 X795.646 Y556.354
 M5 $0 (plasma end)
 G0 X846.5 Y553.5
 M3 $0 S1 (plasma start)
 G1 X840 Y547
 G1 X840 Y473
 G1 X853 Y460
 G1 X927 Y460
 G1 X940 Y473
 G1 X940 Y547
 G1 X927 Y560
 G1 X853 Y560
 G1 X846.5 Y553.5
 G1 X846.146 Y553.146
 M5 $0 (plasma end)
 G0 X931.975 Y600.99
 M3 $0 S1 (plasma start)
 G3 X940 Y613 I-4.975 J12.01
 G1 X940 Y687
 G3 X927 Y700 I-13 J0
 G1 X853 Y700
 G3 X840 Y687 I0 J-13
 G1 X840 Y613
 G3 X853 Y600 I13 J0
 G1 X927 Y600
 G3 X931.975 Y600.99 I0 J13
 G3 X932.433 Y601.19 I-4.975 J12.01
 M5 $0 (plasma end)
 G0 X825.675 Y369.823
 M3 $0 S1 (plasma start)
 G3 X825.675 Y369.823 I-0.177 J0.177
 G3 X825.586 Y370.234 I-0.177 J0.177
 M5 $0 (plasma end)
 G0 X764.593 Y369.646
 M3 $0 S1 (plasma start)
 G3 X764.593 Y369.646 I0.354 J0.354
 G3 X765.053 Y369.511 I0.354 J0.354
 M5 $0 (plasma end)
 G0 X710.772 Y369.293
 M3 $0 S1 (plasma start)
 G3 X710.772 Y369.293 I0.707 J0.707
 G3 X711.198 Y369.04 I0.707 J0.707
 M5 $0 (plasma end)
 G0 X670.859 Y368.674
 M3 $0 S1 (plasma start)
 G3 X670.859 Y368.674 I1.326 J1.326
 G3 X671.255 Y368.372 I1.326 J1.326
 M5 $0 (plasma end)
 G0 X625.615 Y367.879
 M3 $0 S1 (plasma start)
 G3 X625.615 Y367.879 I2.121 J2.121
 G3 X625.997 Y367.556 I2.121 J2.121
 M5 $0 (plasma end)
 G0 X579.109 Y366.464
 M3 $0 S1 (plasma start)
 G3 X579.109 Y366.464 I3.536 J3.536
 G3 X579.479 Y366.129 I3.536 J3.536
 M5 $0 (plasma end)
 G0 X535.267 Y363.371
 M3 $0 S1 (plasma start)
 G3 X535.267 Y363.371 I6.629 J6.629
 G3 X535.63 Y363.027 I6.629 J6.629
 M5 $0 (plasma end)
 G0 X375 Y112.5
 M3 $0 S1 (plasma start)
 G1 Y125
 G1 Y125.1
 G1 Y125.2
 G1 Y130
 G1 Y155
 G1 Y170
 G1 Y195
 G1 Y205
 G1 Y225
 G1 X300
 G1 X275
 G1 X274.9
 G1 X274.4
 G1 X274.1
 G1 X260
 G1 X255.3
 G1 X255.2
 G1 X255.1
 G1 X125 Y225
 G1 X125 Y0
 G1 X375 Y0
 G1 X375 Y112.5
 G1 X375 Y113
 M5 $0 (plasma end)
 G0 X240 Y650
 M3 $0 S1 (plasma start)
 G1 X240 Y699
 G3 X239 Y700 I-1 J0
 G1 X141 Y700
 G3 X140 Y699 I0 J-1
 G1 X140 Y601
 G3 X141 Y600 I1 J-0
 G1 X239 Y600
 G3 X240 Y601 I-0 J1
 G1 X240 Y650
 G1 X240 Y650.5
 M5 $0 (plasma end)
 G0 X100 Y650
 M3 $0 S1 (plasma start)
 G1 X100 Y700
 G1 X0 Y700
 G1 X0 Y600
 G1 X100 Y600
 G1 X100 Y650
 G1 X100 Y650.5
 M5 $0 (plasma end)
 G0 X600 Y300
 ;
 ;begin post-amble
 G40 (cutter compensation: off)
 G90 (distance mode: absolute)
 M68 E3 Q0 (velocity 100%)
 M5 $-1 (backup stop)
 ;end post-amble
 ;
 ;begin statistics
 ;Pierces = 25
 ;   Cuts = 25,    Length = 7122.71mm
 ;end statistics
 ;
 M30 (end program)
